ocio/AgXc_all-dccs_OCIO-v2/OpenDRT-OCIO-Config-main-2/transforms/OpenDRT_Default_v1.0.0_tlog-egamut_to_Rec1886.cube
TITLE "Generated by Foundry::LUT"
LUT_3D_SIZE 65
0.000889 0.000889 0.000889
0.003670 0.001162 0.001279
0.006831 0.001223 0.001364
0.010148 0.001226 0.000609
0.013513 0.001265 0.000104
0.016947 0.001334 0.000000
0.020847 0.001430 0.000000
0.025493 0.001557 0.000000
0.030996 0.001717 0.000000
0.037476 0.001913 0.000000
0.045054 0.002149 0.000000
0.053856 0.002429 0.000000
0.064009 0.002758 0.000000
0.075641 0.003143 0.000000
0.088890 0.003591 0.000000
0.103908 0.004111 0.000000
0.120872 0.004715 0.000000
0.139997 0.005417 0.000000
0.161534 0.006239 0.000000
0.185766 0.007208 0.000000
0.212977 0.008360 0.000000
0.243409 0.009741 0.000000
0.277186 0.011406 0.000000
0.314252 0.013421 0.000000
0.354306 0.015861 0.000000
0.396812 0.018814 0.000000
0.441057 0.022389 0.000000
0.486267 0.026727 0.000000
0.531733 0.032016 0.000000
0.576878 0.038514 0.000000
0.621273 0.046566 0.000000
0.664615 0.056644 0.000000
0.706675 0.069387 0.000000
0.747263 0.085656 0.000000
0.786191 0.106568 0.000000
0.823235 0.133455 0.000000
0.858097 0.167603 0.000000
0.890415 0.209679 0.000000
0.919878 0.259058 0.000000
0.946436 0.313761 0.000000
0.970400 0.371319 0.000000
0.992292 0.429756 0.000000
1.000000 0.487867 0.000000
1.000000 0.540835 0.081422
1.000000 0.589633 0.253108
1.000000 0.634942 0.362783
1.000000 0.676619 0.446250
1.000000 0.714635 0.516242
1.000000 0.749046 0.576863
1.000000 0.779984 0.630018
1.000000 0.807634 0.676823
1.000000 0.832215 0.718066
1.000000 0.853969 0.754373
1.000000 0.873148 0.786282
1.000000 0.889999 0.814274
1.000000 0.904765 0.838784
1.000000 0.917674 0.860210
1.000000 0.928937 0.878909
1.000000 0.938748 0.895210
1.000000 0.947284 0.909402
1.000000 0.954702 0.921748
1.000000 0.961143 0.932480
1.000000 0.966733 0.941804
1.000000 0.971581 0.949900
1.000000 0.975784 0.956927
0.000000 0.002712 0.001024
0.003723 0.003393 0.000130
0.006667 0.004164 0.000000
0.009867 0.004920 0.000000
0.013236 0.005532 0.000000
0.016717 0.005963 0.000000
0.020690 0.006234 0.000000
0.025426 0.006326 0.000000
0.031019 0.006255 0.000000
0.037571 0.006107 0.000000
0.045202 0.005977 0.000000
0.054041 0.005923 0.000000
0.064219 0.005967 0.000000
0.075869 0.006110 0.000000
0.089130 0.006353 0.000000
0.104156 0.006694 0.000000
0.121124 0.007138 0.000000
0.140248 0.007695 0.000000
0.161782 0.008381 0.000000
0.186010 0.009223 0.000000
0.213218 0.010256 0.000000
0.243648 0.011523 0.000000
0.277427 0.013082 0.000000
0.314497 0.014996 0.000000
0.354558 0.017340 0.000000
0.397071 0.020202 0.000000
0.441322 0.023693 0.000000
0.486535 0.027954 0.000000
0.532001 0.033177 0.000000
0.577140 0.039620 0.000000
0.621527 0.047632 0.000000
0.664857 0.057684 0.000000
0.706900 0.070416 0.000000
0.747468 0.086685 0.000000
0.786370 0.107601 0.000000
0.823382 0.134485 0.000000
0.858209 0.168606 0.000000
0.890489 0.210612 0.000000
0.919920 0.259875 0.000000
0.946455 0.314433 0.000000
0.970405 0.371847 0.000000
0.992291 0.430159 0.000000
1.000000 0.488170 0.000000
1.000000 0.541067 0.081239
1.000000 0.589807 0.253003
1.000000 0.635072 0.362733
1.000000 0.676716 0.446220
1.000000 0.714707 0.516223
1.000000 0.749100 0.576852
1.000000 0.780024 0.630010
1.000000 0.807664 0.676818
1.000000 0.832237 0.718063
1.000000 0.853986 0.754370
1.000000 0.873160 0.786281
1.000000 0.890008 0.814273
1.000000 0.904772 0.838784
1.000000 0.917678 0.860209
1.000000 0.928940 0.878909
1.000000 0.938751 0.895210
1.000000 0.947286 0.909402
1.000000 0.954704 0.921748
1.000000 0.961145 0.932480
1.000000 0.966734 0.941804
1.000000 0.971582 0.949900
1.000000 0.975785 0.956928
0.000000 0.004867 0.000151
0.003728 0.005422 0.000000
0.006862 0.006143 0.000000
0.009888 0.007045 0.000000
0.013103 0.007951 0.000000
0.016469 0.008795 0.000000
0.020355 0.009623 0.000000
0.025040 0.010408 0.000000
0.030636 0.011059 0.000000
0.037256 0.011464 0.000000
0.045004 0.011543 0.000000
0.053973 0.011315 0.000000
0.064263 0.010919 0.000000
0.075993 0.010529 0.000000
0.089307 0.010256 0.000000
0.104363 0.010149 0.000000
0.121349 0.010216 0.000000
0.140482 0.010460 0.000000
0.162020 0.010886 0.000000
0.186247 0.011508 0.000000
0.213454 0.012353 0.000000
0.243884 0.013459 0.000000
0.277666 0.014875 0.000000
0.314740 0.016662 0.000000
0.354808 0.018891 0.000000
0.397329 0.021648 0.000000
0.441586 0.025043 0.000000
0.486803 0.029218 0.000000
0.532267 0.034368 0.000000
0.577402 0.040751 0.000000
0.621781 0.048718 0.000000
0.665097 0.058742 0.000000
0.707125 0.071459 0.000000
0.747672 0.087725 0.000000
0.786548 0.108643 0.000000
0.823529 0.135522 0.000000
0.858320 0.169613 0.000000
0.890563 0.211546 0.000000
0.919961 0.260692 0.000000
0.946473 0.315105 0.000000
0.970410 0.372374 0.000000
0.992289 0.430562 0.000000
1.000000 0.488474 0.000000
1.000000 0.541300 0.081056
1.000000 0.589981 0.252898
1.000000 0.635202 0.362681
1.000000 0.676814 0.446190
1.000000 0.714779 0.516204
1.000000 0.749154 0.576840
1.000000 0.780064 0.630002
1.000000 0.807694 0.676813
1.000000 0.832259 0.718059
1.000000 0.854002 0.754368
1.000000 0.873172 0.786279
1.000000 0.890017 0.814272
1.000000 0.904778 0.838783
1.000000 0.917683 0.860209
1.000000 0.928944 0.878909
1.000000 0.938753 0.895209
1.000000 0.947288 0.909402
1.000000 0.954705 0.921748
1.000000 0.961146 0.932480
1.000000 0.966735 0.941804
1.000000 0.971583 0.949900
1.000000 0.975785 0.956928
0.000000 0.007124 0.000000
0.002987 0.007676 0.000000
0.007078 0.008221 0.000000
0.010182 0.009055 0.000000
0.013267 0.010011 0.000000
0.016496 0.010978 0.000000
0.020256 0.012016 0.000000
0.024825 0.013133 0.000000
0.030322 0.014260 0.000000
0.036871 0.015297 0.000000
0.044594 0.016111 0.000000
0.053607 0.016554 0.000000
0.064007 0.016518 0.000000
0.075879 0.016042 0.000000
0.089320 0.015331 0.000000
0.104469 0.014636 0.000000
0.121512 0.014122 0.000000
0.140679 0.013858 0.000000
0.162233 0.013862 0.000000
0.186470 0.014140 0.000000
0.213681 0.014705 0.000000
0.244114 0.015582 0.000000
0.277900 0.016808 0.000000
0.314981 0.018433 0.000000
0.355057 0.020523 0.000000
0.397586 0.023157 0.000000
0.441848 0.026442 0.000000
0.487069 0.030522 0.000000
0.532533 0.035590 0.000000
0.577664 0.041908 0.000000
0.622033 0.049826 0.000000
0.665337 0.059816 0.000000
0.707348 0.072516 0.000000
0.747874 0.088776 0.000000
0.786725 0.109694 0.000000
0.823675 0.136565 0.000000
0.858429 0.170623 0.000000
0.890636 0.212483 0.000000
0.920002 0.261509 0.000000
0.946491 0.315776 0.000000
0.970415 0.372901 0.000000
0.992288 0.430964 0.000000
1.000000 0.488777 0.000000
1.000000 0.541532 0.080873
1.000000 0.590155 0.252793
1.000000 0.635332 0.362630
1.000000 0.676911 0.446161
1.000000 0.714852 0.516186
1.000000 0.749208 0.576827
1.000000 0.780104 0.629994
1.000000 0.807724 0.676808
1.000000 0.832282 0.718056
1.000000 0.854019 0.754366
1.000000 0.873184 0.786278
1.000000 0.890026 0.814271
1.000000 0.904785 0.838782
1.000000 0.917688 0.860208
1.000000 0.928947 0.878909
1.000000 0.938756 0.895209
1.000000 0.947290 0.909402
1.000000 0.954707 0.921748
1.000000 0.961147 0.932480
1.000000 0.966736 0.941804
1.000000 0.971583 0.949900
1.000000 0.975786 0.956928
0.000000 0.009476 0.000000
0.000591 0.009955 0.000000
0.006977 0.010482 0.000000
0.010478 0.011167 0.000000
0.013605 0.012057 0.000000
0.016738 0.013039 0.000000
0.020368 0.014150 0.000000
0.024803 0.015412 0.000000
0.030176 0.016782 0.000000
0.036615 0.018184 0.000000
0.044249 0.019504 0.000000
0.053205 0.020595 0.000000
0.063602 0.021272 0.000000
0.075543 0.021368 0.000000
0.089113 0.020845 0.000000
0.104404 0.019887 0.000000
0.121563 0.018826 0.000000
0.140806 0.017941 0.000000
0.162406 0.017375 0.000000
0.186668 0.017176 0.000000
0.213893 0.017355 0.000000
0.244335 0.017924 0.000000
0.278129 0.018901 0.000000
0.315218 0.020324 0.000000
0.355303 0.022244 0.000000
0.397840 0.024734 0.000000
0.442110 0.027894 0.000000
0.487334 0.031867 0.000000
0.532798 0.036846 0.000000
0.577924 0.043091 0.000000
0.622285 0.050954 0.000000
0.665577 0.060908 0.000000
0.707571 0.073587 0.000000
0.748076 0.089839 0.000000
0.786901 0.110753 0.000000
0.823820 0.137614 0.000000
0.858539 0.171638 0.000000
0.890708 0.213421 0.000000
0.920042 0.262326 0.000000
0.946509 0.316447 0.000000
0.970420 0.373428 0.000000
0.992286 0.431366 0.000000
1.000000 0.489080 0.000000
1.000000 0.541765 0.080693
1.000000 0.590329 0.252688
1.000000 0.635462 0.362580
1.000000 0.677008 0.446131
1.000000 0.714924 0.516168
1.000000 0.749262 0.576816
1.000000 0.780144 0.629987
1.000000 0.807753 0.676803
1.000000 0.832304 0.718053
1.000000 0.854035 0.754364
1.000000 0.873197 0.786276
1.000000 0.890035 0.814270
1.000000 0.904792 0.838782
1.000000 0.917693 0.860208
1.000000 0.928951 0.878909
1.000000 0.938759 0.895209
1.000000 0.947292 0.909402
1.000000 0.954708 0.921748
1.000000 0.961148 0.932480
1.000000 0.966736 0.941804
1.000000 0.971584 0.949900
1.000000 0.975786 0.956928
0.000000 0.011897 0.000000
0.000000 0.012137 0.000000
0.006397 0.012877 0.000000
0.010569 0.013436 0.000000
0.013936 0.014200 0.000000
0.017097 0.015120 0.000000
0.020643 0.016231 0.000000
0.024949 0.017549 0.000000
0.030185 0.019040 0.000000
0.036496 0.020648 0.000000
0.044017 0.022286 0.000000
0.052879 0.023822 0.000000
0.063211 0.025083 0.000000
0.075133 0.025858 0.000000
0.088752 0.025945 0.000000
0.104160 0.025273 0.000000
0.121464 0.024037 0.000000
0.140831 0.022640 0.000000
0.162516 0.021448 0.000000
0.186828 0.020661 0.000000
0.214083 0.020346 0.000000
0.244543 0.020518 0.000000
0.278350 0.021182 0.000000
0.315450 0.022353 0.000000
0.355546 0.024069 0.000000
0.398093 0.026390 0.000000
0.442370 0.029408 0.000000
0.487599 0.033261 0.000000
0.533063 0.038140 0.000000
0.578184 0.044305 0.000000
0.622537 0.052109 0.000000
0.665816 0.062022 0.000000
0.707794 0.074676 0.000000
0.748278 0.090916 0.000000
0.787077 0.111825 0.000000
0.823964 0.138673 0.000000
0.858647 0.172659 0.000000
0.890780 0.214364 0.000000
0.920083 0.263147 0.000000
0.946527 0.317120 0.000000
0.970425 0.373956 0.000000
0.992285 0.431770 0.000000
1.000000 0.489384 0.000000
1.000000 0.541998 0.080510
1.000000 0.590503 0.252582
1.000000 0.635592 0.362528
1.000000 0.677105 0.446101
1.000000 0.714997 0.516149
1.000000 0.749316 0.576804
1.000000 0.780185 0.629979
1.000000 0.807783 0.676798
1.000000 0.832326 0.718049
1.000000 0.854052 0.754362
1.000000 0.873209 0.786275
1.000000 0.890044 0.814269
1.000000 0.904798 0.838781
1.000000 0.917698 0.860208
1.000000 0.928955 0.878908
1.000000 0.938762 0.895209
1.000000 0.947294 0.909402
1.000000 0.954709 0.921748
1.000000 0.961149 0.932480
1.000000 0.966737 0.941804
1.000000 0.971584 0.949900
1.000000 0.975786 0.956928
0.000000 0.014662 0.000000
0.000000 0.014761 0.000000
0.004620 0.015693 0.000000
0.010330 0.016112 0.000000
0.014129 0.016747 0.000000
0.017480 0.017548 0.000000
0.021051 0.018589 0.000000
0.025266 0.019900 0.000000
0.030357 0.021443 0.000000
0.036514 0.023175 0.000000
0.043890 0.025027 0.000000
0.052625 0.026891 0.000000
0.062853 0.028616 0.000000
0.074702 0.030002 0.000000
0.088297 0.030807 0.000000
0.103754 0.030800 0.000000
0.121182 0.029898 0.000000
0.140709 0.028328 0.000000
0.162535 0.026575 0.000000
0.186944 0.025091 0.000000
0.214259 0.024123 0.000000
0.244755 0.023748 0.000000
0.278585 0.023976 0.000000
0.315703 0.024804 0.000000
0.355814 0.026246 0.000000
0.398374 0.028344 0.000000
0.442661 0.031179 0.000000
0.487894 0.034880 0.000000
0.533359 0.039635 0.000000
0.578475 0.045703 0.000000
0.622819 0.053433 0.000000
0.666084 0.063294 0.000000
0.708043 0.075917 0.000000
0.748504 0.092141 0.000000
0.787274 0.113039 0.000000
0.824125 0.139869 0.000000
0.858768 0.173810 0.000000
0.890860 0.215424 0.000000
0.920128 0.264069 0.000000
0.946547 0.317876 0.000000
0.970431 0.374548 0.000000
0.992283 0.432222 0.000000
1.000000 0.489726 0.000000
1.000000 0.542260 0.080306
1.000000 0.590699 0.252465
1.000000 0.635739 0.362471
1.000000 0.677215 0.446067
1.000000 0.715079 0.516128
1.000000 0.749377 0.576791
1.000000 0.780230 0.629970
1.000000 0.807817 0.676792
1.000000 0.832351 0.718046
1.000000 0.854070 0.754359
1.000000 0.873223 0.786273
1.000000 0.890055 0.814268
1.000000 0.904806 0.838781
1.000000 0.917704 0.860207
1.000000 0.928959 0.878908
1.000000 0.938764 0.895209
1.000000 0.947296 0.909402
1.000000 0.954711 0.921748
1.000000 0.961150 0.932480
1.000000 0.966738 0.941804
1.000000 0.971585 0.949900
1.000000 0.975787 0.956928
0.000000 0.017974 0.000000
0.000000 0.017997 0.000000
0.001006 0.018819 0.000000
0.009420 0.019399 0.000000
0.014007 0.019911 0.000000
0.017730 0.020576 0.000000
0.021501 0.021480 0.000000
0.025743 0.022705 0.000000
0.030726 0.024234 0.000000
0.036712 0.026021 0.000000
0.043907 0.028007 0.000000
0.052473 0.030108 0.000000
0.062553 0.032197 0.000000
0.074283 0.034097 0.000000
0.087795 0.035582 0.000000
0.103224 0.036377 0.000000
0.120708 0.036223 0.000000
0.140379 0.035028 0.000000
0.162391 0.033068 0.000000
0.186965 0.030929 0.000000
0.214395 0.029152 0.000000
0.244963 0.028024 0.000000
0.278839 0.027627 0.000000
0.315988 0.027959 0.000000
0.356122 0.029010 0.000000
0.398700 0.030796 0.000000
0.443000 0.033379 0.000000
0.488241 0.036876 0.000000
0.533707 0.041467 0.000000
0.578818 0.047405 0.000000
0.623151 0.055037 0.000000
0.666399 0.064831 0.000000
0.708337 0.077411 0.000000
0.748769 0.093610 0.000000
0.787505 0.114492 0.000000
0.824315 0.141296 0.000000
0.858910 0.175180 0.000000
0.890953 0.216683 0.000000
0.920180 0.265161 0.000000
0.946570 0.318771 0.000000
0.970437 0.375250 0.000000
0.992281 0.432758 0.000000
1.000000 0.490130 0.000000
1.000000 0.542570 0.080065
1.000000 0.590931 0.252324
1.000000 0.635912 0.362403
1.000000 0.677344 0.446027
1.000000 0.715175 0.516103
1.000000 0.749449 0.576774
1.000000 0.780284 0.629960
1.000000 0.807857 0.676786
1.000000 0.832381 0.718041
1.000000 0.854092 0.754357
1.000000 0.873239 0.786272
1.000000 0.890067 0.814267
1.000000 0.904815 0.838780
1.000000 0.917711 0.860207
1.000000 0.928964 0.878908
1.000000 0.938768 0.895209
1.000000 0.947299 0.909402
1.000000 0.954713 0.921748
1.000000 0.961152 0.932480
1.000000 0.966739 0.941804
1.000000 0.971586 0.949900
1.000000 0.975788 0.956928
0.000000 0.021921 0.000000
0.000000 0.021909 0.000000
0.000000 0.022369 0.000000
0.006675 0.023425 0.000000
0.013258 0.023784 0.000000
0.017623 0.024325 0.000000
0.021790 0.025073 0.000000
0.026259 0.026133 0.000000
0.031274 0.027556 0.000000
0.037133 0.029320 0.000000
0.044128 0.031363 0.000000
0.052482 0.033610 0.000000
0.062366 0.035960 0.000000
0.073926 0.038265 0.000000
0.087302 0.040321 0.000000
0.102639 0.041873 0.000000
0.120094 0.042613 0.000000
0.139832 0.042252 0.000000
0.162012 0.040701 0.000000
0.186804 0.038304 0.000000
0.214426 0.035760 0.000000
0.245130 0.033702 0.000000
0.279092 0.032447 0.000000
0.316298 0.032071 0.000000
0.356471 0.032561 0.000000
0.399076 0.033905 0.000000
0.443395 0.036138 0.000000
0.488647 0.039355 0.000000
0.534115 0.043724 0.000000
0.579222 0.049489 0.000000
0.623541 0.056992 0.000000
0.666771 0.066693 0.000000
0.708682 0.079213 0.000000
0.749082 0.095376 0.000000
0.787776 0.116232 0.000000
0.824537 0.143001 0.000000
0.859076 0.176810 0.000000
0.891063 0.218177 0.000000
0.920241 0.266455 0.000000
0.946598 0.319830 0.000000
0.970445 0.376080 0.000000
0.992279 0.433392 0.000000
1.000000 0.490608 0.000000
1.000000 0.542938 0.079781
1.000000 0.591206 0.252159
1.000000 0.636118 0.362323
1.000000 0.677498 0.445981
1.000000 0.715290 0.516074
1.000000 0.749534 0.576755
1.000000 0.780347 0.629948
1.000000 0.807904 0.676777
1.000000 0.832416 0.718036
1.000000 0.854118 0.754353
1.000000 0.873258 0.786269
1.000000 0.890081 0.814266
1.000000 0.904826 0.838779
1.000000 0.917719 0.860206
1.000000 0.928970 0.878908
1.000000 0.938772 0.895209
1.000000 0.947302 0.909402
1.000000 0.954715 0.921748
1.000000 0.961154 0.932480
1.000000 0.966741 0.941804
1.000000 0.971587 0.949900
1.000000 0.975788 0.956928
0.000000 0.026598 0.000000
0.000000 0.026570 0.000000
0.000000 0.026786 0.000000
0.001458 0.027814 0.000000
0.011081 0.028494 0.000000
0.016816 0.028894 0.000000
0.021653 0.029501 0.000000
0.026576 0.030373 0.000000
0.031851 0.031600 0.000000
0.037747 0.033235 0.000000
0.044596 0.035244 0.000000
0.052718 0.037550 0.000000
0.062357 0.040060 0.000000
0.073691 0.042653 0.000000
0.086875 0.045158 0.000000
0.102060 0.047346 0.000000
0.119414 0.048931 0.000000
0.139124 0.049569 0.000000
0.161387 0.048943 0.000000
0.186379 0.046975 0.000000
0.214255 0.044100 0.000000
0.245183 0.041146 0.000000
0.279303 0.038830 0.000000
0.316611 0.037486 0.000000
0.356851 0.037179 0.000000
0.399502 0.037894 0.000000
0.443850 0.039632 0.000000
0.489119 0.042461 0.000000
0.534593 0.046526 0.000000
0.579694 0.052057 0.000000
0.624000 0.059384 0.000000
0.667207 0.068961 0.000000
0.709087 0.081397 0.000000
0.749448 0.097506 0.000000
0.788094 0.118322 0.000000
0.824796 0.145038 0.000000
0.859269 0.178752 0.000000
0.891190 0.219951 0.000000
0.920312 0.267987 0.000000
0.946629 0.321083 0.000000
0.970454 0.377062 0.000000
0.992276 0.434143 0.000000
1.000000 0.491175 0.000000
1.000000 0.543372 0.079446
1.000000 0.591532 0.251964
1.000000 0.636361 0.362228
1.000000 0.677679 0.445925
1.000000 0.715425 0.516039
1.000000 0.749635 0.576734
1.000000 0.780422 0.629933
1.000000 0.807960 0.676768
1.000000 0.832457 0.718030
1.000000 0.854149 0.754349
1.000000 0.873281 0.786267
1.000000 0.890098 0.814264
1.000000 0.904838 0.838778
1.000000 0.917728 0.860206
1.000000 0.928977 0.878907
1.000000 0.938778 0.895208
1.000000 0.947306 0.909402
1.000000 0.954718 0.921748
1.000000 0.961156 0.932480
1.000000 0.966742 0.941804
1.000000 0.971588 0.949900
1.000000 0.975789 0.956928
0.000000 0.032103 0.000000
0.000000 0.032067 0.000000
0.000000 0.032150 0.000000
0.000000 0.032750 0.000000
0.004788 0.034028 0.000000
0.014514 0.034412 0.000000
0.020702 0.034867 0.000000
0.026383 0.035571 0.000000
0.032179 0.036576 0.000000
0.038376 0.037979 0.000000
0.045269 0.039835 0.000000
0.053225 0.042096 0.000000
0.062598 0.044666 0.000000
0.073652 0.047433 0.000000
0.086579 0.050257 0.000000
0.101549 0.052945 0.000000
0.118736 0.055241 0.000000
0.138338 0.056824 0.000000
0.160578 0.057315 0.000000
0.185675 0.056364 0.000000
0.213790 0.053923 0.000000
0.245014 0.050542 0.000000
0.279393 0.047184 0.000000
0.316884 0.044637 0.000000
0.357243 0.043244 0.000000
0.399970 0.043069 0.000000
0.444367 0.044106 0.000000
0.489663 0.046390 0.000000
0.535147 0.050032 0.000000
0.580246 0.055242 0.000000
0.624536 0.062329 0.000000
0.667717 0.071733 0.000000
0.709562 0.084052 0.000000
0.749877 0.100082 0.000000
0.788465 0.120836 0.000000
0.825098 0.147478 0.000000
0.859495 0.181066 0.000000
0.891338 0.222058 0.000000
0.920394 0.269803 0.000000
0.946666 0.322565 0.000000
0.970464 0.378223 0.000000
0.992273 0.435030 0.000000
1.000000 0.491845 0.000000
1.000000 0.543886 0.079050
1.000000 0.591917 0.251731
1.000000 0.636649 0.362116
1.000000 0.677894 0.445860
1.000000 0.715586 0.515999
1.000000 0.749755 0.576707
1.000000 0.780511 0.629916
1.000000 0.808026 0.676757
1.000000 0.832506 0.718023
1.000000 0.854186 0.754345
1.000000 0.873308 0.786264
1.000000 0.890118 0.814262
1.000000 0.904853 0.838777
1.000000 0.917739 0.860205
1.000000 0.928985 0.878907
1.000000 0.938784 0.895208
1.000000 0.947310 0.909402
1.000000 0.954722 0.921748
1.000000 0.961158 0.932480
1.000000 0.966744 0.941804
1.000000 0.971589 0.949900
1.000000 0.975790 0.956928
0.000000 0.038541 0.000000
0.000000 0.038499 0.000000
0.000000 0.038522 0.000000
0.000000 0.038820 0.000000
0.000711 0.039720 0.000000
0.007832 0.040977 0.000000
0.018074 0.041304 0.000000
0.025238 0.041833 0.000000
0.031895 0.042640 0.000000
0.038691 0.043782 0.000000
0.045932 0.045368 0.000000
0.053945 0.047449 0.000000
0.063132 0.049963 0.000000
0.073886 0.052794 0.000000
0.086496 0.055810 0.000000
0.101179 0.058852 0.000000
0.118127 0.061706 0.000000
0.137547 0.064089 0.000000
0.159674 0.065642 0.000000
0.184759 0.065938 0.000000
0.213009 0.064605 0.000000
0.244520 0.061641 0.000000
0.279244 0.057732 0.000000
0.317030 0.053979 0.000000
0.357597 0.051231 0.000000
0.400458 0.049845 0.000000
0.444937 0.049898 0.000000
0.490280 0.051411 0.000000
0.535786 0.054463 0.000000
0.580886 0.059224 0.000000
0.625161 0.065979 0.000000
0.668313 0.075143 0.000000
0.710117 0.087294 0.000000
0.750377 0.103207 0.000000
0.788898 0.123869 0.000000
0.825450 0.150404 0.000000
0.859756 0.183828 0.000000
0.891509 0.224560 0.000000
0.920489 0.271954 0.000000
0.946708 0.324319 0.000000
0.970476 0.379597 0.000000
0.992269 0.436080 0.000000
1.000000 0.492637 0.000000
1.000000 0.544495 0.078584
1.000000 0.592373 0.251457
1.000000 0.636990 0.361983
1.000000 0.678149 0.445782
1.000000 0.715776 0.515950
1.000000 0.749897 0.576677
1.000000 0.780617 0.629896
1.000000 0.808105 0.676744
1.000000 0.832565 0.718014
1.000000 0.854229 0.754339
1.000000 0.873340 0.786260
1.000000 0.890142 0.814260
1.000000 0.904871 0.838775
1.000000 0.917752 0.860204
1.000000 0.928994 0.878906
1.000000 0.938791 0.895208
1.000000 0.947315 0.909401
1.000000 0.954726 0.921748
1.000000 0.961161 0.932480
1.000000 0.966746 0.941804
1.000000 0.971591 0.949900
1.000000 0.975791 0.956928
0.000000 0.046015 0.000000
0.000000 0.045969 0.000000
0.000000 0.045963 0.000000
0.000000 0.046088 0.000000
0.000000 0.046587 0.000000
0.001296 0.047644 0.000000
0.010683 0.048960 0.000000
0.022191 0.049300 0.000000
0.030494 0.049897 0.000000
0.038269 0.050809 0.000000
0.046201 0.052093 0.000000
0.054620 0.053864 0.000000
0.063882 0.056173 0.000000
0.074432 0.058938 0.000000
0.086709 0.062024 0.000000
0.101038 0.065281 0.000000
0.117669 0.068533 0.000000
0.136827 0.071544 0.000000
0.158760 0.073999 0.000000
0.183731 0.075492 0.000000
0.211986 0.075549 0.000000
0.243672 0.073775 0.000000
0.278738 0.070238 0.000000
0.316921 0.065780 0.000000
0.357821 0.061646 0.000000
0.400912 0.058744 0.000000
0.445536 0.057458 0.000000
0.490963 0.057895 0.000000
0.536510 0.060114 0.000000
0.581620 0.064246 0.000000
0.625883 0.070535 0.000000
0.669005 0.079361 0.000000
0.710761 0.091272 0.000000
0.750958 0.107014 0.000000
0.789399 0.127536 0.000000
0.825856 0.153919 0.000000
0.860056 0.187124 0.000000
0.891706 0.227532 0.000000
0.920598 0.274500 0.000000
0.946757 0.326391 0.000000
0.970489 0.381220 0.000000
0.992264 0.437321 0.000000
1.000000 0.493575 0.000000
1.000000 0.545216 0.078037
1.000000 0.592913 0.251132
1.000000 0.637394 0.361826
1.000000 0.678451 0.445691
1.000000 0.716001 0.515893
1.000000 0.750065 0.576640
1.000000 0.780742 0.629872
1.000000 0.808197 0.676728
1.000000 0.832634 0.718004
1.000000 0.854280 0.754332
1.000000 0.873378 0.786256
1.000000 0.890170 0.814258
1.000000 0.904892 0.838774
1.000000 0.917767 0.860203
1.000000 0.929006 0.878906
1.000000 0.938799 0.895208
1.000000 0.947322 0.909401
1.000000 0.954730 0.921748
1.000000 0.961164 0.932480
1.000000 0.966749 0.941804
1.000000 0.971593 0.949900
1.000000 0.975793 0.956928
0.000000 0.054628 0.000000
0.000000 0.054579 0.000000
0.000000 0.054555 0.000000
0.000000 0.054602 0.000000
0.000000 0.054838 0.000000
0.000000 0.055452 0.000000
0.001922 0.056708 0.000000
0.013952 0.058139 0.000000
0.026924 0.058502 0.000000
0.036537 0.059174 0.000000
0.045588 0.060181 0.000000
0.054802 0.061610 0.000000
0.064540 0.063570 0.000000
0.075193 0.066109 0.000000
0.087253 0.069123 0.000000
0.101216 0.072462 0.000000
0.117457 0.075959 0.000000
0.136269 0.079420 0.000000
0.157919 0.082586 0.000000
0.182685 0.085103 0.000000
0.210831 0.086509 0.000000
0.242548 0.086272 0.000000
0.277839 0.083987 0.000000
0.316426 0.079821 0.000000
0.357776 0.074800 0.000000
0.401236 0.070317 0.000000
0.446108 0.067353 0.000000
0.491684 0.066329 0.000000
0.537310 0.067388 0.000000
0.582451 0.070635 0.000000
0.626710 0.076266 0.000000
0.669800 0.084613 0.000000
0.711503 0.096180 0.000000
0.751628 0.111669 0.000000
0.789976 0.131984 0.000000
0.826323 0.158149 0.000000
0.860401 0.191064 0.000000
0.891930 0.231065 0.000000
0.920723 0.277514 0.000000
0.946813 0.328841 0.000000
0.970505 0.383137 0.000000
0.992259 0.438787 0.000000
