ocio/AgXc_all-dccs_OCIO-v2/OpenDRT-OCIO-Config-main-2/transforms/OpenDRT_Default_v1.0.0_tlog-egamut_to_Rec1886_inverse.cube
LUT_3D_SIZE 64
0.000000 0.000000 0.000000
0.078437 0.000000 0.002973
0.130284 0.000000 0.003950
0.163180 0.000000 0.010789
0.188505 0.000000 0.018386
0.209084 0.000000 0.023716
0.226618 0.000000 0.031843
0.242092 0.000000 0.039153
0.255900 0.000000 0.046523
0.268450 0.000000 0.053893
0.279943 0.000000 0.063159
0.290178 0.000000 0.072620
0.299854 0.000000 0.081781
0.308961 0.000000 0.090839
0.317283 0.000000 0.099153
0.325423 0.000000 0.107432
0.332794 0.000000 0.114963
0.340124 0.000000 0.122591
0.346851 0.000000 0.129564
0.353527 0.000000 0.136680
0.359810 0.000000 0.143248
0.365979 0.000000 0.150013
0.372149 0.000000 0.156363
0.377714 0.000000 0.162813
0.383513 0.000000 0.169391
0.389301 0.000000 0.175319
0.394413 0.000000 0.181785
0.399955 0.000000 0.187771
0.405474 0.000000 0.194137
0.410281 0.000000 0.200752
0.415645 0.000000 0.206746
0.420995 0.000000 0.213362
0.425559 0.000000 0.219480
0.430805 0.000000 0.226456
0.436068 0.000000 0.233193
0.440448 0.000000 0.238492
0.445703 0.000000 0.244776
0.450957 0.000000 0.250009
0.455081 0.000000 0.256152
0.460299 0.000000 0.262585
0.465498 0.000000 0.267704
0.469325 0.000000 0.273972
0.474487 0.000000 0.280572
0.479609 0.000000 0.285604
0.484052 0.000000 0.292063
0.488127 0.000000 0.297013
0.493130 0.000000 0.303628
0.498133 0.000000 0.310243
0.501099 0.000000 0.314342
0.506034 0.000000 0.320343
0.510969 0.000000 0.326345
0.515053 0.000000 0.329632
0.518047 0.000000 0.335153
0.522709 0.000000 0.340875
0.527371 0.000000 0.343680
0.530614 0.000000 0.348566
0.533073 0.000000 0.353720
0.537318 0.000000 0.358329
0.541566 0.000000 0.360147
0.545541 0.000000 0.364806
0.546544 0.000000 0.369465
0.549348 0.000000 0.373566
0.553042 0.000000 0.374638
0.556753 0.000000 0.377708
0.000000 0.099463 0.000000
0.071168 0.085607 0.000000
0.128636 0.054847 0.000000
0.161434 0.045558 0.000000
0.186672 0.045016 0.000000
0.207178 0.046919 0.000000
0.224864 0.049297 0.000000
0.240450 0.051648 0.000000
0.254426 0.053524 0.000000
0.267154 0.054798 0.000000
0.278639 0.055823 0.000000
0.289150 0.056267 0.000000
0.299110 0.055662 0.000000
0.308229 0.054672 0.000000
0.316842 0.052829 0.000000
0.325012 0.049982 0.000000
0.332686 0.046383 0.000000
0.340056 0.042023 0.000000
0.347108 0.036494 0.000000
0.353841 0.029890 0.000000
0.359239 0.032946 0.046739
0.366736 0.013371 0.000000
0.372989 0.003445 0.000000
0.378392 0.000000 0.044161
0.383384 0.000000 0.112469
0.388345 0.000000 0.154063
0.393969 0.000000 0.161428
0.399508 0.000000 0.168818
0.405031 0.000000 0.176134
0.410324 0.000000 0.183694
0.415678 0.000000 0.191322
0.421010 0.000000 0.199325
0.426030 0.000000 0.207471
0.431313 0.000000 0.214476
0.436583 0.000000 0.221113
0.441420 0.000000 0.228501
0.446630 0.000000 0.235514
0.451813 0.000000 0.242869
0.456390 0.000000 0.250349
0.461535 0.000000 0.257801
0.466734 0.000000 0.264503
0.471100 0.000000 0.270167
0.476262 0.000000 0.276768
0.481414 0.000000 0.282312
0.485386 0.000000 0.288834
0.490444 0.000000 0.295609
0.495468 0.000000 0.300972
0.499742 0.000000 0.307587
0.503844 0.000000 0.312790
0.508676 0.000000 0.319419
0.513511 0.000000 0.326034
0.516331 0.000000 0.329836
0.520993 0.000000 0.335558
0.525655 0.000000 0.341279
0.530316 0.000000 0.344267
0.532048 0.000000 0.349375
0.536294 0.000000 0.354635
0.540539 0.000000 0.358658
0.544789 0.000000 0.361369
0.546447 0.000000 0.366028
0.548992 0.000000 0.370649
0.552685 0.000000 0.373943
0.556379 0.000000 0.375060
0.560099 0.000000 0.379148
0.000000 0.155237 0.000000
0.078730 0.148651 0.000000
0.124710 0.140335 0.005648
0.162849 0.122365 0.000000
0.188684 0.106779 0.000000
0.208661 0.098524 0.000000
0.225857 0.096390 0.000000
0.241060 0.097040 0.000000
0.254740 0.099211 0.000000
0.267277 0.102204 0.000000
0.278604 0.105479 0.000000
0.289011 0.108751 0.000000
0.296726 0.119012 0.046726
0.307911 0.114275 0.000000
0.316476 0.116747 0.000000
0.324562 0.118910 0.000000
0.332213 0.120521 0.000000
0.339508 0.122133 0.000000
0.346545 0.122946 0.000000
0.353208 0.123465 0.000000
0.358918 0.128490 0.030793
0.366016 0.122974 0.000000
0.372196 0.122237 0.000000
0.378196 0.120204 0.000000
0.384037 0.117934 0.000000
0.389891 0.114571 0.000000
0.395556 0.110139 0.000000
0.401198 0.104287 0.000000
0.406843 0.096835 0.000000
0.412400 0.085901 0.000000
0.417968 0.072281 0.000000
0.423545 0.054914 0.000000
0.429128 0.033008 0.000000
0.434724 0.009014 0.000000
0.439415 0.000000 0.090359
0.443571 0.000000 0.179099
0.448004 0.000000 0.214968
0.453100 0.000000 0.225824
0.457962 0.000000 0.239859
0.463095 0.000000 0.248469
0.468238 0.000000 0.255931
0.473083 0.000000 0.263389
0.478173 0.000000 0.270876
0.483235 0.000000 0.279016
0.487701 0.000000 0.285687
0.492759 0.000000 0.292462
0.497805 0.000000 0.298315
0.501775 0.000000 0.305041
0.506648 0.000000 0.311960
0.511491 0.000000 0.317431
0.515427 0.000000 0.324059
0.519426 0.000000 0.329226
0.523985 0.000000 0.335647
0.528601 0.000000 0.341684
0.531190 0.000000 0.345041
0.535269 0.000000 0.350291
0.539514 0.000000 0.355551
0.543760 0.000000 0.358987
0.546350 0.000000 0.362591
0.548635 0.000000 0.367219
0.552329 0.000000 0.371812
0.556023 0.000000 0.374321
0.559726 0.000000 0.376499
0.561553 0.000000 0.380587
0.000000 0.190410 0.000000
0.098892 0.184535 0.000000
0.126596 0.182395 0.000000
0.158932 0.170752 0.045752
0.188390 0.164485 0.000000
0.210020 0.152785 0.000000
0.227472 0.144085 0.000000
0.242472 0.139060 0.000000
0.255869 0.136788 0.000000
0.268119 0.136674 0.000000
0.279297 0.137748 0.000000
0.289499 0.140085 0.000000
0.299200 0.142330 0.000000
0.308141 0.144947 0.000000
0.316591 0.147631 0.000000
0.324597 0.150280 0.000000
0.332178 0.152838 0.000000
0.339405 0.155421 0.000000
0.346379 0.157694 0.000000
0.352987 0.159496 0.000000
0.359126 0.163123 0.015376
0.365686 0.163094 0.000000
0.371818 0.164254 0.000000
0.377782 0.165292 0.000000
0.383560 0.166294 0.000000
0.389356 0.166709 0.000000
0.394982 0.166708 0.000000
0.400558 0.166664 0.000000
0.406155 0.165744 0.000000
0.411645 0.164318 0.000000
0.417146 0.162226 0.000000
0.422654 0.159601 0.000000
0.428164 0.155308 0.000000
0.433681 0.149924 0.000000
0.439235 0.142918 0.000000
0.444852 0.132195 0.000000
0.450484 0.118506 0.000000
0.456207 0.097521 0.000000
0.462015 0.063237 0.000000
0.467840 0.022153 0.000000
0.472607 0.000000 0.119040
0.476516 0.000000 0.214970
0.480301 0.000000 0.261349
0.485312 0.000000 0.269262
0.490320 0.000000 0.277533
0.495283 0.000000 0.285903
0.499941 0.000000 0.294900
0.504578 0.000000 0.302560
0.509451 0.000000 0.309479
0.514307 0.000000 0.315443
0.518043 0.000000 0.322243
0.522619 0.000000 0.328079
0.527178 0.000000 0.334373
0.530964 0.000000 0.340794
0.534315 0.000000 0.345436
0.538489 0.000000 0.351207
0.542735 0.000000 0.356467
0.546254 0.000000 0.359316
0.548279 0.000000 0.363788
0.551973 0.000000 0.368381
0.555667 0.000000 0.372974
0.559360 0.000000 0.374699
0.561623 0.000000 0.377939
0.562477 0.000000 0.382027
0.000000 0.217179 0.000000
0.117382 0.211098 0.000000
0.135976 0.210295 0.000000
0.160284 0.208057 0.000000
0.185949 0.202176 0.014676
0.209047 0.194934 0.000000
0.228068 0.186307 0.000000
0.243713 0.178591 0.000000
0.257180 0.173323 0.000000
0.269301 0.169805 0.000000
0.280425 0.167889 0.000000
0.290392 0.167516 0.000000
0.299921 0.168307 0.000000
0.308741 0.169535 0.000000
0.317059 0.171512 0.000000
0.324983 0.173491 0.000000
0.332430 0.175533 0.000000
0.339605 0.177776 0.000000
0.346506 0.180054 0.000000
0.353032 0.182381 0.000000
0.359120 0.186255 0.015370
0.365643 0.186666 0.000000
0.371710 0.188659 0.000000
0.377613 0.190583 0.000000
0.383353 0.192087 0.000000
0.389098 0.193528 0.000000
0.394675 0.194948 0.000000
0.400198 0.196242 0.000000
0.405747 0.196963 0.000000
0.411192 0.197540 0.000000
0.416626 0.198102 0.000000
0.421678 0.200556 0.031053
0.427535 0.197159 0.000000
0.432991 0.196132 0.000000
0.438477 0.194320 0.000000
0.444022 0.191543 0.000000
0.449587 0.187944 0.000000
0.455213 0.182540 0.000000
0.460941 0.174924 0.000000
0.466687 0.165235 0.000000
0.472583 0.150181 0.000000
0.478572 0.127768 0.000000
0.484348 0.100954 0.031223
0.490908 0.022880 0.000000
0.495439 0.000000 0.157311
0.499252 0.000000 0.241588
0.502931 0.000000 0.284905
0.507710 0.000000 0.294267
0.512434 0.000000 0.303832
0.516657 0.000000 0.313523
0.521233 0.000000 0.320481
0.525809 0.000000 0.327433
0.530371 0.000000 0.333098
0.533594 0.000000 0.339709
0.537743 0.000000 0.344874
0.541897 0.000000 0.350785
0.546052 0.000000 0.356696
0.547928 0.000000 0.360325
0.551617 0.000000 0.364951
0.555310 0.000000 0.369544
0.559004 0.000000 0.374004
0.561694 0.000000 0.375291
0.562669 0.000000 0.379361
0.565741 0.000000 0.383132
0.109270 0.234270 0.046770
0.134820 0.233522 0.000000
0.148737 0.232480 0.000000
0.166268 0.231405 0.000000
0.187050 0.229063 0.000000
0.207519 0.225095 0.000000
0.226952 0.219211 0.000000
0.243821 0.212162 0.000000
0.257959 0.206123 0.000000
0.270328 0.201125 0.000000
0.281560 0.197173 0.000000
0.291462 0.194637 0.000000
0.300832 0.193218 0.000000
0.309606 0.192955 0.000000
0.317745 0.193054 0.000000
0.325610 0.194132 0.000000
0.332934 0.195369 0.000000
0.340027 0.196915 0.000000
0.346838 0.198808 0.000000
0.353312 0.200770 0.000000
0.359332 0.204132 0.015582
0.365782 0.204721 0.000000
0.371801 0.206646 0.000000
0.377653 0.208612 0.000000
0.383326 0.210565 0.000000
0.389031 0.212316 0.000000
0.394572 0.214087 0.000000
0.400049 0.215866 0.000000
0.405530 0.217593 0.000000
0.410944 0.218800 0.000000
0.416342 0.219887 0.000000
0.421739 0.220974 0.000000
0.427134 0.221583 0.000000
0.432548 0.221809 0.000000
0.437967 0.222002 0.000000
0.443457 0.221390 0.000000
0.448966 0.220338 0.000000
0.454510 0.218951 0.000000
0.460179 0.215723 0.000000
0.465858 0.212029 0.000000
0.471651 0.206729 0.000000
0.477567 0.198732 0.000000
0.483500 0.188982 0.000000
0.483958 0.221332 0.265208
0.495937 0.147696 0.000000
0.502334 0.104501 0.000000
0.508993 0.009327 0.000000
0.512917 0.000000 0.200010
0.516472 0.000000 0.272406
0.520208 0.000000 0.304198
0.524629 0.000000 0.314656
0.529014 0.000000 0.325352
0.532874 0.000000 0.331954
0.537022 0.000000 0.338712
0.541170 0.000000 0.344313
0.545324 0.000000 0.350223
0.547821 0.000000 0.356220
0.551426 0.000000 0.360396
0.555053 0.000000 0.365440
0.558681 0.000000 0.370484
0.561767 0.000000 0.374382
0.562922 0.000000 0.376687
0.565994 0.000000 0.380457
0.569066 0.000000 0.384227
0.000000 0.257571 0.000000
0.150601 0.252214 0.000000
0.161387 0.251145 0.000000
0.174555 0.250669 0.000000
0.191151 0.249434 0.000000
0.208679 0.247237 0.000000
0.226102 0.243830 0.000000
0.240027 0.233619 0.108619
0.257747 0.233833 0.000000
0.270749 0.228476 0.000000
0.282290 0.223989 0.000000
0.292388 0.220541 0.000000
0.301743 0.217873 0.000000
0.310539 0.215717 0.000000
0.318563 0.214766 0.000000
0.326379 0.214242 0.000000
0.333585 0.214538 0.000000
0.340616 0.214964 0.000000
0.347323 0.216190 0.000000
0.353744 0.217490 0.000000
0.359273 0.221208 0.031148
0.366079 0.220515 0.000000
0.372046 0.222174 0.000000
0.377834 0.223901 0.000000
0.383465 0.225698 0.000000
0.389123 0.227506 0.000000
0.394614 0.229369 0.000000
0.400044 0.231252 0.000000
0.405480 0.233099 0.000000
0.410853 0.234670 0.000000
0.416207 0.236122 0.000000
0.421561 0.237574 0.000000
0.426898 0.238899 0.000000
0.432273 0.239749 0.000000
0.437649 0.240591 0.000000
0.443079 0.241184 0.000000
0.448540 0.241227 0.000000
0.454032 0.240993 0.000000
0.459630 0.240213 0.000000
0.465264 0.238591 0.000000
0.470970 0.236583 0.000000
0.476826 0.232646 0.000000
0.482697 0.227904 0.000000
0.484333 0.250375 0.249958
0.494949 0.210306 0.000000
0.501210 0.196309 0.000000
0.507777 0.171973 0.000000
0.514368 0.133527 0.000000
0.521358 0.028812 0.000000
0.525533 0.000000 0.204608
0.528974 0.000000 0.282076
0.532473 0.000000 0.316131
0.536443 0.000000 0.327939
0.540450 0.000000 0.337714
0.544597 0.000000 0.343751
0.547718 0.000000 0.349738
0.551319 0.000000 0.355975
0.554925 0.000000 0.360466
0.558552 0.000000 0.365511
0.561884 0.000000 0.370555
0.563278 0.000000 0.374555
0.566298 0.000000 0.377538
0.569333 0.000000 0.381485
0.572391 0.000000 0.385323
0.000000 0.273963 0.000000
0.164821 0.268549 0.000000
0.173299 0.267441 0.000000
0.184473 0.267060 0.000000
0.197988 0.265620 0.015620
0.212072 0.265156 0.000000
0.227272 0.263155 0.000000
0.242401 0.260184 0.000000
0.256999 0.256214 0.000000
0.270430 0.251890 0.000000
0.282458 0.247520 0.000000
0.292930 0.243489 0.000000
0.302449 0.240082 0.000000
0.311349 0.237500 0.000000
0.319344 0.235593 0.000000
0.327182 0.233997 0.000000
0.334289 0.233322 0.000000
0.341298 0.232729 0.000000
0.347902 0.233051 0.000000
0.354282 0.233532 0.000000
0.360573 0.234232 0.000000
0.366491 0.235408 0.000000
0.372409 0.236567 0.000000
0.378128 0.237823 0.000000
0.383731 0.239405 0.000000
0.389339 0.241008 0.000000
0.394770 0.242705 0.000000
0.400149 0.244429 0.000000
0.405568 0.246135 0.000000
0.410891 0.247874 0.000000
0.416200 0.249619 0.000000
0.421505 0.251241 0.000000
0.426814 0.252636 0.000000
0.432143 0.253893 0.000000
0.437472 0.255151 0.000000
0.442852 0.256242 0.000000
0.448271 0.256895 0.000000
0.453713 0.257392 0.000000
0.459260 0.257540 0.000000
0.464842 0.257116 0.000000
0.470491 0.256268 0.000000
0.476281 0.254547 0.000000
0.482098 0.252207 0.000000
0.483786 0.269927 0.249411
0.494196 0.242775 0.000000
0.500344 0.235945 0.000000
0.506842 0.223684 0.000000
0.513358 0.207745 0.000000
0.520193 0.179694 0.000000
0.527195 0.127183 0.000000
0.534058 0.000000 0.012891
0.537333 0.000000 0.250031
0.540412 0.000000 0.311767
0.544133 0.000000 0.330811
0.547677 0.000000 0.341711
0.551216 0.000000 0.349494
0.554817 0.000000 0.355731
0.558423 0.000000 0.360537
0.562007 0.000000 0.365582
0.563723 0.000000 0.370741
0.566717 0.000000 0.374723
0.569743 0.000000 0.378069
0.572778 0.000000 0.382016
0.575813 0.000000 0.385963
0.000000 0.288580 0.000000
0.177765 0.283137 0.000000
0.185263 0.282207 0.000000
0.194200 0.281660 0.000000
0.204412 0.281310 0.000000
0.216877 0.280446 0.000000
0.230079 0.279124 0.000000
0.243507 0.277276 0.000000
0.256887 0.274651 0.000000
0.269888 0.271277 0.000000
0.282128 0.267611 0.000000
0.292935 0.263914 0.000000
0.302727 0.260366 0.000000
0.311875 0.257288 0.000000
0.319960 0.254734 0.000000
0.327877 0.252664 0.000000
0.334951 0.251247 0.000000
0.341980 0.250063 0.000000
0.348508 0.249513 0.000000
0.354868 0.249186 0.000000
0.359094 0.253359 0.077844
0.366973 0.249861 0.000000
0.372854 0.250416 0.000000
0.378525 0.251306 0.000000
0.384084 0.252490 0.000000
0.389642 0.253674 0.000000
0.395013 0.254993 0.000000
0.400380 0.256516 0.000000
0.405755 0.258070 0.000000
0.411022 0.259707 0.000000
0.416279 0.261353 0.000000
0.421566 0.262962 0.000000
0.426847 0.264534 0.000000
0.432125 0.266065 0.000000
0.437402 0.267505 0.000000
0.442754 0.268676 0.000000
0.448134 0.269676 0.000000
0.453522 0.270656 0.000000
0.459017 0.271356 0.000000
0.464565 0.271491 0.000000
0.470155 0.271492 0.000000
0.475891 0.270857 0.000000
0.481664 0.269627 0.000000
0.484041 0.282732 0.234041
0.493626 0.264419 0.000000
0.499705 0.260263 0.000000
0.506114 0.253248 0.000000
0.512568 0.244077 0.000000
0.519271 0.229920 0.000000
0.526202 0.207640 0.000000
0.533305 0.169948 0.000000
0.540843 0.058665 0.000000
0.545355 0.000000 0.209288
0.548409 0.000000 0.299432
0.551352 0.000000 0.335714
0.554810 0.000000 0.346582
0.558315 0.000000 0.355486
0.561921 0.000000 0.360608
0.564168 0.000000 0.365809
0.567162 0.000000 0.371135
0.570156 0.000000 0.374890
0.573187 0.000000 0.378599
0.576222 0.000000 0.382546
0.577667 0.000000 0.386493
0.000000 0.301802 0.000000
0.189716 0.296295 0.000000
0.196237 0.295408 0.000000
0.203624 0.294676 0.000000
0.212437 0.294363 0.000000
0.222795 0.293782 0.000000
0.234297 0.292892 0.000000
0.245900 0.291660 0.000000
0.257878 0.289978 0.000000
0.269948 0.287638 0.000000
0.281766 0.284731 0.000000
0.292568 0.281633 0.000000
0.302623 0.278263 0.000000
0.312038 0.275097 0.000000
0.320311 0.272311 0.000000
0.327850 0.270396 0.015350
0.335481 0.268070 0.000000
0.342574 0.266423 0.000000
0.349070 0.265351 0.000000
0.355442 0.264354 0.000000
0.359259 0.267966 0.093634
0.367478 0.263803 0.000000
0.373340 0.263743 0.000000
0.378964 0.264423 0.000000
0.384487 0.265158 0.000000
0.390009 0.265863 0.000000
0.395355 0.266984 0.000000
0.400680 0.268193 0.000000
0.406006 0.269402 0.000000
0.411219 0.270741 0.000000
0.416470 0.272231 0.000000
0.421722 0.273727 0.000000
0.426949 0.275257 0.000000
0.432175 0.276788 0.000000
0.437440 0.278249 0.000000
0.442765 0.279590 0.000000
0.448092 0.280930 0.000000
0.453423 0.282182 0.000000
0.458909 0.282899 0.000000
0.464403 0.283562 0.000000
0.469932 0.284140 0.000000
0.475636 0.283961 0.000000
0.481358 0.283584 0.000000
0.484302 0.293240 0.218677
0.493207 0.280686 0.000000
0.499229 0.278257 0.000000
0.505561 0.273674 0.000000
0.511951 0.267878 0.000000
0.518551 0.259210 0.000000
0.525414 0.246188 0.000000
0.532379 0.227345 0.000000
0.539836 0.190540 0.000000
0.547331 0.114649 0.000000
0.552693 0.000000 0.197174
0.555624 0.000000 0.300733
0.558470 0.000000 0.341680
0.561954 0.000000 0.351315
0.564629 0.000000 0.360441
0.567607 0.000000 0.366204
0.570601 0.000000 0.371530
0.573596 0.000000 0.375183
0.576631 0.000000 0.379130
0.577927 0.000000 0.383077
0.579828 0.000000 0.387109
0.000000 0.313940 0.000000
0.200616 0.308036 0.000000
0.206615 0.307266 0.000000
0.212296 0.306506 0.000000
0.220628 0.306191 0.000000
0.228623 0.305871 0.000000
0.238866 0.305179 0.000000
0.249600 0.304257 0.000000
0.260095 0.303068 0.000000
0.270844 0.301565 0.000000
0.281916 0.299495 0.000000
0.292133 0.296389 0.015139
0.302333 0.293964 0.000000
0.311879 0.290976 0.000000
0.320354 0.288209 0.000000
0.328119 0.285964 0.015619
0.335815 0.283679 0.000000
0.343021 0.281771 0.000000
0.349528 0.280287 0.000000
0.355952 0.278820 0.000000
0.359354 0.281872 0.109354
0.367967 0.277303 0.000000
0.373832 0.276948 0.000000
0.379406 0.277043 0.000000
0.384908 0.277180 0.000000
0.390424 0.277673 0.000000
0.395723 0.278513 0.000000
0.401014 0.279360 0.000000
0.406313 0.280299 0.000000
0.411519 0.281607 0.000000
0.416722 0.282826 0.000000
0.421742 0.284591 0.015492
0.427115 0.285380 0.000000
0.432338 0.286786 0.000000
0.437560 0.288192 0.000000
0.442832 0.289556 0.000000
0.448116 0.290891 0.000000
0.453447 0.292118 0.000000
0.458883 0.293154 0.000000
0.464320 0.294190 0.000000
0.469824 0.294923 0.000000
0.475488 0.295175 0.000000
0.481153 0.295426 0.000000
0.484124 0.303830 0.218499
0.492912 0.293857 0.000000
0.498888 0.292390 0.000000
0.505146 0.289458 0.000000
0.511485 0.285508 0.000000
0.517984 0.280054 0.000000
0.524792 0.271177 0.000000
0.531642 0.259658 0.000000
0.539029 0.238773 0.000000
0.546416 0.207259 0.000000
0.554489 0.118172 0.000000
0.559882 0.000000 0.195015
0.562799 0.000000 0.302777
0.565254 0.000000 0.348085
0.568147 0.000000 0.358671
0.571079 0.000000 0.365651
0.574040 0.000000 0.371924
0.577041 0.000000 0.375713
0.578346 0.000000 0.379671
0.580766 0.000000 0.383740
0.583185 0.000000 0.387808
0.000000 0.324905 0.000000
0.210555 0.318899 0.000000
0.216227 0.318227 0.000000
0.221507 0.317561 0.000000
0.228122 0.317138 0.000000
0.235697 0.316877 0.000000
0.244054 0.316406 0.000000
0.253125 0.315780 0.000000
0.263095 0.314842 0.000000
0.272820 0.313702 0.000000
0.282771 0.312299 0.000000
0.292560 0.310252 0.000000
0.302217 0.307758 0.000000
0.311628 0.305131 0.000000
0.320165 0.302558 0.000000
0.328528 0.300136 0.000000
0.335927 0.298034 0.000000
0.343277 0.295913 0.000000
0.349841 0.294163 0.000000
0.356344 0.292504 0.000000
0.362499 0.291332 0.000000
0.368411 0.290256 0.000000
0.374281 0.289673 0.000000
0.379833 0.289282 0.000000
0.385337 0.289138 0.000000
0.390561 0.289823 0.015561
0.396100 0.289606 0.000000
0.401378 0.290118 0.000000
0.406657 0.290888 0.000000
0.411826 0.291821 0.000000
0.416994 0.292753 0.000000
0.421821 0.294899 0.031196
0.427367 0.295232 0.000000
0.432543 0.296539 0.000000
0.437719 0.297765 0.000000
0.442979 0.299024 0.000000
0.448248 0.300292 0.000000
0.453524 0.301550 0.000000
0.458904 0.302686 0.000000
0.464339 0.303656 0.000000
0.469807 0.304565 0.000000
0.475411 0.305219 0.000000
0.481055 0.305597 0.000000
0.484009 0.313516 0.218384
0.492706 0.305290 0.000000
0.498657 0.304286 0.000000
0.504841 0.302586 0.000000
0.511135 0.299778 0.000000
0.517557 0.296106 0.000000
0.524310 0.289934 0.000000
0.531071 0.282204 0.000000
0.538377 0.268234 0.000000
0.545709 0.249268 0.000000
0.553643 0.210374 0.000000
0.561643 0.121662 0.000000
0.566638 0.000000 0.225349
0.569183 0.000000 0.320827
0.571673 0.000000 0.355799
0.574593 0.000000 0.363865
0.577529 0.000000 0.370861
0.579283 0.000000 0.376302
0.581703 0.000000 0.380370
0.584123 0.000000 0.384438
0.586542 0.000000 0.388507
0.000000 0.335026 0.000000
0.220061 0.329126 0.000000
0.225022 0.328540 0.000000
0.229985 0.327933 0.000000
0.235508 0.327371 0.000000
0.242331 0.327096 0.000000
0.249329 0.326799 0.000000
0.257743 0.326160 0.000000
0.266514 0.325415 0.000000
0.275260 0.324452 0.000000
0.284494 0.323223 0.000000
0.293507 0.321780 0.000000
0.302499 0.319994 0.000000
0.311609 0.317814 0.000000
0.319973 0.315558 0.000000
0.328064 0.313091 0.015564
0.335864 0.311075 0.000000
0.343315 0.308864 0.000000
0.350003 0.306994 0.000000
0.356581 0.305322 0.000000
0.362800 0.303917 0.000000
0.368753 0.302786 0.000000
0.374667 0.301844 0.000000
0.380225 0.301173 0.000000
0.385733 0.300852 0.000000
0.391214 0.300558 0.000000
0.396485 0.300633 0.000000
0.401754 0.300935 0.000000
0.407004 0.301266 0.000000
0.412155 0.301847 0.000000
0.417321 0.302687 0.000000
0.422483 0.303545 0.000000
0.427621 0.304523 0.000000
0.432777 0.305621 0.000000
0.437954 0.306820 0.000000
0.443175 0.308039 0.000000
0.448397 0.309258 0.000000
0.453658 0.310494 0.000000
0.459038 0.311630 0.000000
0.464417 0.312750 0.000000
0.469827 0.313775 0.000000
0.475429 0.314404 0.000000
0.481033 0.315024 0.000000
0.484008 0.321915 0.218383
0.492613 0.315227 0.000000
0.498504 0.314928 0.000000
0.504639 0.313776 0.000000
0.510884 0.311946 0.000000
0.517254 0.309214 0.000000
0.523943 0.304873 0.000000
0.530659 0.299153 0.000000
0.537875 0.289419 0.000000
0.545147 0.276198 0.000000
0.552947 0.252870 0.000000
0.560900 0.212357 0.000000
0.569530 0.063138 0.000000
0.573112 0.000000 0.261057
0.575530 0.000000 0.336598
0.578078 0.000000 0.362079
0.580323 0.000000 0.369207
0.582693 0.000000 0.375350
0.585078 0.000000 0.380500
0.587480 0.000000 0.385137
0.589899 0.000000 0.389205
0.000000 0.344687 0.000000
0.228194 0.338458 0.000000
0.233608 0.337726 0.000000
0.238059 0.337143 0.000000
0.242417 0.336560 0.000000
0.249043 0.336289 0.000000
0.255160 0.336028 0.000000
0.262466 0.335594 0.000000
0.270150 0.335012 0.000000
0.278452 0.334236 0.000000
0.286450 0.333368 0.000000
0.295177 0.332202 0.000000
0.303382 0.330883 0.000000
0.311945 0.329313 0.000000
0.320033 0.327323 0.000000
0.328012 0.324687 0.015512
0.335740 0.322884 0.000000
0.343233 0.320814 0.000000
0.350038 0.318918 0.000000
0.356684 0.317288 0.000000
0.362997 0.315784 0.000000
0.368990 0.314625 0.000000
0.374982 0.313466 0.000000
0.380537 0.312784 0.000000
0.386080 0.312101 0.000000
0.391569 0.311557 0.000000
0.396841 0.311467 0.000000
0.402112 0.311378 0.000000
0.407357 0.311504 0.000000
0.412503 0.312013 0.000000
0.417650 0.312519 0.000000
0.422791 0.313032 0.000000
0.427925 0.313925 0.000000
0.433059 0.314819 0.000000
0.438200 0.315723 0.000000
0.443396 0.316763 0.000000
0.448613 0.317894 0.000000
0.453846 0.319018 0.000000
0.459175 0.320094 0.000000
0.464535 0.321166 0.000000
0.469949 0.322186 0.000000
0.475494 0.323029 0.000000
0.481051 0.323829 0.000000
0.484042 0.330065 0.218417
0.492576 0.324466 0.000000
0.498426 0.324495 0.000000
0.504532 0.323691 0.000000
0.510720 0.322645 0.000000
0.517044 0.320617 0.000000
0.523678 0.317396 0.000000
0.530342 0.313311 0.000000
0.537480 0.306032 0.000000
0.544692 0.296559 0.000000
0.552386 0.280449 0.000000
0.560293 0.255107 0.000000
0.568787 0.199915 0.000000
