ocio/AgXc_all-dccs_OCIO-v2/OpenDRT-OCIO-Config-main-2/transforms/OpenDRT_Default_v1.0.0_tlog-egamut_to_Rec1886_inverse.cube
LUT_3D_SIZE 4
0.000000 0.000000 0.000000
0.365979 0.000000 0.150013
0.474487 0.000000 0.280572
0.556753 0.000000 0.377708
0.000000 0.405345 0.000000
0.371013 0.386838 0.000000
0.482437 0.383730 0.000000
0.618335 0.000000 0.375188
0.000000 0.540232 0.000000
0.430966 0.511040 0.000000
0.498474 0.504747 0.000000
0.656250 0.513646 0.000000
0.000000 0.651424 0.225780
0.479798 0.651840 0.000000
0.558932 0.633733 0.000000
0.608800 0.606291 0.000000
0.015625 0.000000 0.390621
0.356581 0.000000 0.369638
0.474291 0.000000 0.390355
0.558657 0.000000 0.437283
0.046854 0.390604 0.372914
0.369122 0.369122 0.369122
0.474336 0.388528 0.393819
0.619392 0.000000 0.455645
0.000000 0.514441 0.413258
0.430477 0.497205 0.407604
0.496060 0.498116 0.404264
0.701020 0.432967 0.000000
0.000000 0.655589 0.458290
0.368494 0.683200 0.000000
0.575312 0.671222 0.000000
0.637098 0.630285 0.000000
0.319449 0.000000 0.492310
0.386452 0.000000 0.488428
0.475560 0.000000 0.488968
0.547486 0.000000 0.500097
0.000000 0.374633 0.500481
0.401315 0.381111 0.486828
0.480360 0.384945 0.490985
0.600191 0.000000 0.531474
0.000000 0.511477 0.509493
0.435818 0.502283 0.503164
0.506338 0.506338 0.506338
0.708668 0.000000 0.572780
0.000000 0.660182 0.577958
0.000000 0.703472 0.582592
0.279730 0.759441 0.000000
0.705429 0.695848 0.000000
0.404715 0.000000 0.549901
0.436687 0.000000 0.550660
0.483500 0.000000 0.549814
0.530789 0.000000 0.545751
0.421455 0.000000 0.593132
0.459463 0.000000 0.592205
0.508831 0.000000 0.588297
0.561814 0.000000 0.577011
0.000000 0.401396 0.663325
0.480611 0.000000 0.674640
0.555007 0.000000 0.668402
0.620602 0.000000 0.635584
0.000000 0.645189 0.660259
0.000000 0.676064 0.693853
0.000000 0.732027 0.752431
1.000000 0.984375 1.000000
