ocio/AgXc_all-dccs_OCIO-v2/OpenDRT-OCIO-Config-main-2/transforms/OpenDRT_Default_v1.0.0_tlog-egamut_to_Rec1886.cube
TITLE "Generated by Foundry::LUT"
LUT_3D_SIZE 9
0.000889 0.000889 0.000889
0.030996 0.001717 0.000000
0.120872 0.004715 0.000000
0.354306 0.015861 0.000000
0.706675 0.069387 0.000000
0.970400 0.371319 0.000000
1.000000 0.749046 0.576863
1.000000 0.917674 0.860210
1.000000 0.975784 0.956927
0.000000 0.021921 0.000000
0.031274 0.027556 0.000000
0.120094 0.042613 0.000000
0.356471 0.032561 0.000000
0.708682 0.079213 0.000000
0.970445 0.376080 0.000000
1.000000 0.749534 0.576755
1.000000 0.917719 0.860206
1.000000 0.975788 0.956928
0.000000 0.088337 0.000000
0.000000 0.090054 0.000000
0.118776 0.104461 0.000000
0.355061 0.126253 0.000000
0.714346 0.119347 0.000000
0.970564 0.391220 0.000000
1.000000 0.751108 0.576415
1.000000 0.917863 0.860197
1.000000 0.975801 0.956928
0.000000 0.264417 0.000000
0.000000 0.264019 0.000000
0.004035 0.273223 0.000000
0.346993 0.310320 0.000000
0.717028 0.307944 0.000000
0.970806 0.446182 0.000000
1.000000 0.757199 0.575174
1.000000 0.918424 0.860162
1.000000 0.975851 0.956930
0.000000 0.571811 0.000000
0.000000 0.572356 0.000000
0.000000 0.575033 0.000000
0.028465 0.612159 0.000000
0.679633 0.653512 0.000000
0.971995 0.616869 0.000000
1.000000 0.780696 0.571628
1.000000 0.920605 0.860057
1.000000 0.976045 0.956936
0.006366 0.869137 0.000000
0.007732 0.870266 0.000000
0.011885 0.874024 0.000000
0.035613 0.890126 0.000000
0.394245 0.926507 0.000000
0.915724 0.932353 0.316768
1.000000 0.866813 0.582862
1.000000 0.929132 0.860106
1.000000 0.976797 0.956972
0.633542 1.000000 0.638246
0.634238 1.000000 0.638338
0.636467 1.000000 0.638630
0.644941 1.000000 0.639733
0.675573 1.000000 0.643565
0.776135 1.000000 0.660146
0.984194 0.999784 0.795203
1.000000 0.961153 0.868404
1.000000 0.979733 0.957265
0.884505 1.000000 0.882130
0.884561 1.000000 0.882145
0.884741 1.000000 0.882194
0.885436 1.000000 0.882381
0.888086 1.000000 0.883087
0.897794 1.000000 0.885601
0.930689 1.000000 0.894818
0.999611 1.000000 0.941805
1.000000 0.990622 0.960991
0.965006 1.000000 0.963929
0.965011 1.000000 0.963931
0.965028 1.000000 0.963937
0.965092 1.000000 0.963960
0.965339 1.000000 0.964047
0.966278 1.000000 0.964378
0.969698 1.000000 0.965562
0.980949 1.000000 0.969640
1.000000 1.000000 0.985232
0.000000 0.000257 0.024250
0.035708 0.000000 0.032269
0.123612 0.002077 0.046291
0.358940 0.014006 0.000000
0.709596 0.067832 0.000000
0.972985 0.371097 0.000000
1.000000 0.749020 0.577746
1.000000 0.917676 0.860278
1.000000 0.975785 0.956934
0.000000 0.026547 0.030138
0.033300 0.033300 0.033300
0.127769 0.033578 0.037865
0.364961 0.027627 0.000000
0.710701 0.077020 0.000000
0.971581 0.375589 0.000000
1.000000 0.749508 0.577639
1.000000 0.917721 0.860275
1.000000 0.975789 0.956934
0.000000 0.092298 0.040072
0.000000 0.096893 0.030021
0.121970 0.110654 0.000000
0.364447 0.116031 0.000000
0.716336 0.116015 0.000000
0.971684 0.390784 0.000000
1.000000 0.751081 0.577299
1.000000 0.917866 0.860265
1.000000 0.975802 0.956934
0.000000 0.269462 0.000000
0.000000 0.268866 0.000000
0.000418 0.279713 0.000000
0.350011 0.315502 0.000000
0.719025 0.306318 0.000000
0.971857 0.445939 0.000000
1.000000 0.757171 0.576065
1.000000 0.918427 0.860230
1.000000 0.975852 0.956936
0.000000 0.574926 0.000000
0.000000 0.575408 0.000000
0.000000 0.577851 0.000000
0.026170 0.613735 0.000000
0.680105 0.654805 0.000000
0.972792 0.617197 0.000000
1.000000 0.780661 0.572537
1.000000 0.920607 0.860126
1.000000 0.976045 0.956942
0.005957 0.870315 0.000000
0.007365 0.871436 0.000000
0.011539 0.875169 0.000000
0.034969 0.891187 0.000000
0.394602 0.927590 0.000000
0.915325 0.931759 0.328148
1.000000 0.866787 0.584000
1.000000 0.929132 0.860175
1.000000 0.976798 0.956978
0.633420 1.000000 0.638745
0.634116 1.000000 0.638837
0.636347 1.000000 0.639129
0.644831 1.000000 0.640232
0.675491 1.000000 0.644065
0.776218 1.000000 0.660862
0.984122 0.999643 0.795846
1.000000 0.961152 0.868491
1.000000 0.979733 0.957271
0.884501 1.000000 0.882170
0.884557 1.000000 0.882185
0.884737 1.000000 0.882233
0.885432 1.000000 0.882420
0.888082 1.000000 0.883128
0.897792 1.000000 0.885641
0.930701 1.000000 0.894876
0.999603 1.000000 0.941859
1.000000 0.990622 0.960999
0.965006 1.000000 0.963933
0.965012 1.000000 0.963935
0.965028 1.000000 0.963940
0.965092 1.000000 0.963963
0.965339 1.000000 0.964051
0.966278 1.000000 0.964382
0.969698 1.000000 0.965566
0.980950 1.000000 0.969645
1.000000 1.000000 0.985237
0.000000 0.000000 0.096428
0.044206 0.000000 0.103849
0.132443 0.000000 0.119317
0.364190 0.008612 0.133038
0.717175 0.063635 0.000000
0.976828 0.370039 0.000000
1.000000 0.749189 0.580451
1.000000 0.917794 0.860449
1.000000 0.975787 0.956954
0.000000 0.033659 0.101602
0.027520 0.030764 0.111553
0.135913 0.011443 0.121652
0.371046 0.019930 0.124190
0.718918 0.072333 0.000000
0.976822 0.374715 0.000000
1.000000 0.749677 0.580342
1.000000 0.917728 0.860495
1.000000 0.975790 0.956953
0.000000 0.100376 0.114450
0.000000 0.105165 0.114175
0.121066 0.121066 0.121066
0.384842 0.086489 0.091477
0.723059 0.106355 0.000000
0.975391 0.389440 0.000000
1.000000 0.750999 0.580143
1.000000 0.917873 0.860486
1.000000 0.975803 0.956954
0.000000 0.279721 0.124707
0.000000 0.280875 0.117763
0.000000 0.302331 0.076439
0.359349 0.331040 0.000000
0.725772 0.301957 0.000000
0.975339 0.445218 0.000000
1.000000 0.757083 0.578928
1.000000 0.918434 0.860451
1.000000 0.975853 0.956955
0.000000 0.586316 0.000000
0.000000 0.586604 0.000000
0.000000 0.588324 0.000000
0.017573 0.619806 0.000000
0.682052 0.659145 0.000000
0.975447 0.618461 0.000000
1.000000 0.780551 0.575457
1.000000 0.920614 0.860347
1.000000 0.976047 0.956962
0.004420 0.874187 0.000000
0.006096 0.875281 0.000000
0.010419 0.878933 0.000000
0.032937 0.894676 0.000000
0.396103 0.931172 0.000000
0.914061 0.929890 0.360642
1.000000 0.866710 0.587677
1.000000 0.929134 0.860399
1.000000 0.976799 0.956998
0.633023 1.000000 0.640351
0.633722 1.000000 0.640442
0.635960 1.000000 0.640734
0.644472 1.000000 0.641836
0.675226 1.000000 0.645673
0.776492 1.000000 0.663176
0.983888 0.999189 0.797904
1.000000 0.961148 0.868771
1.000000 0.979734 0.957291
0.884488 1.000000 0.882299
0.884544 1.000000 0.882313
0.884724 1.000000 0.882362
0.885419 1.000000 0.882549
0.888071 1.000000 0.883256
0.897787 1.000000 0.885770
0.930740 1.000000 0.895064
0.999578 1.000000 0.942034
1.000000 0.990622 0.961023
0.965006 1.000000 0.963944
0.965012 1.000000 0.963946
0.965028 1.000000 0.963952
0.965092 1.000000 0.963975
0.965339 1.000000 0.964062
0.966278 1.000000 0.964394
0.969698 1.000000 0.965578
0.980955 1.000000 0.969662
1.000000 1.000000 0.985251
0.000000 0.000000 0.294539
0.003731 0.000000 0.300299
0.129791 0.000000 0.318271
0.381759 0.000000 0.345877
0.728849 0.049048 0.274934
0.991619 0.366586 0.021540
1.000000 0.748928 0.591398
1.000000 0.917823 0.861308
1.000000 0.975832 0.957014
0.000000 0.012239 0.299284
0.000000 0.009278 0.308288
0.114351 0.004777 0.326597
0.384553 0.000000 0.348068
0.730970 0.056642 0.272983
0.991660 0.371458 0.020182
1.000000 0.749414 0.591295
1.000000 0.917868 0.861305
1.000000 0.975797 0.957030
0.000000 0.109723 0.308346
0.000000 0.099018 0.317068
0.040242 0.071807 0.346190
0.391384 0.027623 0.355023
0.737375 0.087492 0.266562
0.991797 0.387007 0.015918
1.000000 0.750982 0.590969
1.000000 0.918013 0.861295
1.000000 0.975810 0.957030
0.000000 0.299769 0.334007
0.000000 0.301705 0.332463
0.000000 0.314995 0.336911
0.347371 0.347371 0.347371
0.741552 0.287563 0.233937
0.989998 0.443407 0.000000
1.000000 0.756790 0.589876
1.000000 0.918464 0.861306
1.000000 0.975860 0.957032
0.000000 0.622081 0.238908
0.000000 0.622750 0.235600
0.000000 0.625068 0.225819
0.005152 0.650602 0.179111
0.686819 0.673275 0.179141
0.986859 0.626342 0.000000
1.000000 0.780163 0.586618
1.000000 0.920639 0.861205
1.000000 0.976054 0.957038
0.000000 0.890254 0.000000
0.000000 0.891247 0.000000
0.005646 0.894578 0.000000
0.025788 0.909220 0.000000
0.401545 0.939022 0.028083
0.909040 0.922633 0.457239
1.000000 0.866514 0.602038
1.000000 0.929142 0.861264
1.000000 0.976806 0.957075
0.631433 1.000000 0.646524
0.632141 1.000000 0.646615
0.634411 1.000000 0.646906
0.643033 1.000000 0.648005
0.674160 1.000000 0.651849
0.777674 1.000000 0.672207
0.982978 0.997436 0.805742
1.000000 0.961137 0.869866
1.000000 0.979739 0.957368
0.884436 1.000000 0.882796
0.884492 1.000000 0.882811
0.884672 1.000000 0.882859
0.885369 1.000000 0.883046
0.888028 1.000000 0.883753
0.897767 1.000000 0.886270
0.930891 1.000000 0.895793
0.999481 1.000000 0.942710
1.000000 0.990623 0.961118
0.965006 1.000000 0.963989
0.965011 1.000000 0.963991
0.965028 1.000000 0.963997
0.965092 1.000000 0.964020
0.965339 1.000000 0.964107
0.966278 1.000000 0.964438
0.969701 1.000000 0.965623
0.980970 1.000000 0.969725
1.000000 1.000000 0.985307
0.000000 0.060416 0.652274
0.000000 0.058277 0.653463
0.000000 0.051517 0.659410
0.260976 0.036169 0.694993
0.732533 0.055870 0.677591
0.995226 0.378539 0.492649
1.000000 0.748607 0.631701
1.000000 0.917953 0.864625
1.000000 0.975858 0.957311
0.000000 0.073282 0.655148
0.000000 0.069704 0.656242
0.000000 0.062173 0.661799
0.254149 0.045181 0.697902
0.733397 0.064501 0.678853
0.994926 0.384130 0.492750
1.000000 0.749083 0.631619
1.000000 0.917997 0.864623
1.000000 0.975862 0.957311
0.000000 0.128662 0.662660
0.000000 0.123134 0.663798
0.000000 0.106944 0.668513
0.229134 0.085015 0.706739
0.735779 0.100320 0.682599
0.993932 0.401833 0.493179
1.000000 0.750619 0.631359
1.000000 0.918141 0.864614
1.000000 0.975875 0.957311
0.000000 0.333814 0.665319
0.000000 0.331733 0.666190
0.000000 0.326344 0.669529
0.089736 0.324334 0.706130
0.728813 0.315192 0.682896
0.989746 0.465158 0.496284
1.000000 0.756567 0.630417
1.000000 0.918700 0.864583
1.000000 0.975925 0.957313
0.000000 0.636270 0.648172
0.000000 0.636301 0.647594
0.000000 0.636500 0.645877
0.000000 0.645762 0.649096
0.652815 0.652815 0.652815
0.969501 0.644546 0.525896
1.000000 0.779271 0.627778
1.000000 0.920755 0.864520
1.000000 0.976080 0.957334
0.000000 0.909279 0.423852
0.000000 0.909937 0.423963
0.000000 0.912181 0.424376
0.010128 0.922737 0.433068
0.449825 0.928377 0.517406
0.889916 0.896593 0.666210
1.000000 0.867181 0.657405
1.000000 0.929186 0.864606
1.000000 0.976830 0.957371
0.624669 1.000000 0.670018
0.625417 1.000000 0.670107
0.627814 1.000000 0.670390
0.636905 1.000000 0.671464
0.669594 1.000000 0.675280
0.783768 1.000000 0.707313
0.979467 0.990909 0.833587
1.000000 0.961133 0.874199
1.000000 0.979755 0.957666
0.884216 1.000000 0.884711
0.884273 1.000000 0.884726
0.884455 1.000000 0.884775
0.885159 1.000000 0.884962
0.887845 1.000000 0.885670
0.897675 1.000000 0.888193
0.931517 1.000000 0.898651
0.999106 1.000000 0.945271
1.000000 0.990625 0.961486
0.965004 1.000000 0.964163
0.965009 1.000000 0.964164
0.965026 1.000000 0.964170
0.965090 1.000000 0.964193
0.965337 1.000000 0.964280
0.966280 1.000000 0.964612
0.969709 1.000000 0.965797
0.981034 1.000000 0.969973
1.000000 1.000000 0.985524
0.000000 0.501992 0.946836
0.000000 0.501420 0.947588
0.000000 0.499618 0.950192
0.006400 0.493593 0.962965
0.495976 0.511108 0.977771
0.938460 0.626986 0.895135
1.000000 0.773289 0.777481
1.000000 0.918712 0.877313
1.000000 0.975964 0.958458
0.000000 0.505202 0.946572
0.000000 0.504539 0.947299
0.000000 0.502771 0.949873
0.005874 0.496965 0.962513
0.495614 0.515373 0.977136
0.937992 0.629394 0.894896
1.000000 0.773818 0.777589
1.000000 0.918755 0.877311
1.000000 0.975968 0.958458
0.000000 0.515376 0.945731
0.000000 0.514759 0.946430
0.000000 0.512803 0.948858
0.003898 0.507734 0.961070
0.494561 0.528794 0.975071
0.936487 0.637006 0.894130
1.000000 0.775519 0.777945
1.000000 0.918894 0.877305
1.000000 0.975981 0.958458
0.000000 0.552248 0.942623
0.000000 0.551779 0.943222
0.000000 0.550303 0.945310
0.000000 0.547621 0.955669
0.492028 0.576104 0.966884
0.930745 0.664357 0.891236
1.000000 0.782067 0.779398
1.000000 0.919433 0.877283
1.000000 0.976031 0.958460
0.000000 0.668178 0.931061
0.000000 0.668253 0.931292
0.000000 0.668731 0.932103
0.000000 0.674667 0.937401
0.499940 0.705532 0.936542
0.910837 0.743653 0.881741
1.000000 0.806644 0.786081
1.000000 0.921528 0.877227
1.000000 0.976223 0.958468
0.000000 0.902870 0.865873
0.000000 0.903286 0.866542
0.008898 0.904813 0.868886
0.059528 0.912948 0.880215
0.561107 0.896023 0.876371
0.870345 0.870345 0.870345
1.000000 0.883318 0.821129
1.000000 0.929595 0.877407
1.000000 0.976930 0.958517
0.602296 1.000000 0.762418
0.603176 1.000000 0.762480
0.605992 1.000000 0.762678
0.616646 1.000000 0.763434
0.661314 1.000000 0.769768
0.819916 0.999167 0.825023
0.968866 0.972888 0.903134
1.000000 0.961692 0.891709
1.000000 0.979825 0.958818
0.883176 1.000000 0.892059
0.883235 1.000000 0.892074
0.883425 1.000000 0.892122
0.884158 1.000000 0.892308
0.886954 1.000000 0.893012
0.897163 1.000000 0.895540
0.934447 1.000000 0.910013
0.997709 1.000000 0.954284
1.000000 0.990648 0.962942
0.964992 1.000000 0.964829
0.964997 1.000000 0.964831
0.965013 1.000000 0.964837
0.965078 1.000000 0.964859
0.965328 1.000000 0.964947
0.966279 1.000000 0.965278
0.969739 1.000000 0.966466
0.981290 1.000000 0.970942
1.000000 1.000000 0.986343
0.520098 0.837221 1.000000
0.521436 0.837135 1.000000
0.525719 0.836857 1.000000
0.541873 0.835775 1.000000
0.599677 0.831678 1.000000
0.804070 0.840529 1.000000
0.987441 0.894495 0.970656
1.000000 0.930949 0.928204
1.000000 0.976459 0.962836
0.519923 0.837540 1.000000
0.521256 0.837453 1.000000
0.525541 0.837176 1.000000
0.541699 0.836095 1.000000
0.599567 0.832014 1.000000
0.804146 0.840913 1.000000
0.987377 0.894694 0.970629
1.000000 0.930996 0.928219
1.000000 0.976463 0.962837
0.519363 0.838567 1.000000
0.520697 0.838480 1.000000
0.524970 0.838201 1.000000
0.541147 0.837125 1.000000
0.599225 0.833095 1.000000
0.804394 0.842143 1.000000
0.987171 0.895331 0.970539
1.000000 0.931147 0.928267
1.000000 0.976475 0.962837
0.517273 0.842512 1.000000
0.518612 0.842427 1.000000
0.522899 0.842152 1.000000
0.539079 0.841084 1.000000
0.598104 0.837279 1.000000
0.805401 0.846828 1.000000
0.986386 0.897748 0.970199
1.000000 0.931734 0.928453
1.000000 0.976523 0.962840
0.510428 0.857335 1.000000
0.511777 0.857256 1.000000
0.516098 0.856999 1.000000
0.532398 0.855998 1.000000
0.596695 0.853265 1.000000
0.809913 0.863735 1.000000
0.983508 0.906359 0.968970
1.000000 0.933995 0.929203
1.000000 0.976707 0.962850
0.513668 0.908152 1.000000
0.515399 0.908112 1.000000
0.520997 0.907986 1.000000
0.542805 0.907551 1.000000
0.624288 0.906642 1.000000
0.831665 0.911254 0.994207
0.975042 0.929908 0.965580
1.000000 0.942514 0.932486
1.000000 0.977424 0.962898
0.690577 1.000000 0.973346
0.691662 1.000000 0.973313
0.695145 1.000000 0.973203
0.708379 1.000000 0.972769
0.755346 0.994175 0.970979
0.874516 0.974689 0.964367
0.963749 0.963749 0.963749
1.000000 0.968712 0.947802
1.000000 0.980172 0.963219
0.880673 1.000000 0.922471
0.880739 1.000000 0.922482
0.880950 1.000000 0.922520
0.881764 1.000000 0.922666
0.884863 1.000000 0.923222
0.898194 1.000000 0.926583
0.949081 1.000000 0.949292
0.993873 0.995139 0.976082
1.000000 0.990929 0.968787
0.964870 1.000000 0.967366
0.964875 1.000000 0.967368
0.964893 1.000000 0.967374
0.964960 1.000000 0.967396
0.965219 1.000000 0.967483
0.966207 1.000000 0.967813
0.969791 1.000000 0.969002
0.982429 1.000000 0.974753
1.000000 1.000000 0.989199
0.857087 0.951708 1.000000
0.857171 0.951702 1.000000
0.857438 0.951682 1.000000
0.858471 0.951607 1.000000
0.862444 0.951317 1.000000
0.877598 0.950256 1.000000
0.940820 0.954908 1.000000
0.999500 0.973399 0.994419
1.000000 0.981283 0.980073
0.857083 0.951737 1.000000
0.857166 0.951730 1.000000
0.857433 0.951711 1.000000
0.858466 0.951636 1.000000
0.862439 0.951346 1.000000
0.877596 0.950286 1.000000
0.940831 0.954941 1.000000
0.999494 0.973415 0.994416
1.000000 0.981287 0.980075
0.857068 0.951829 1.000000
0.857151 0.951823 1.000000
0.857418 0.951804 1.000000
0.858451 0.951729 1.000000
0.862423 0.951439 1.000000
0.877591 0.950383 1.000000
0.940865 0.955047 1.000000
0.999475 0.973465 0.994409
1.000000 0.981301 0.980079
0.857011 0.952188 1.000000
0.857094 0.952182 1.000000
0.857361 0.952163 1.000000
0.858393 0.952088 1.000000
0.862365 0.951798 1.000000
0.877572 0.950756 1.000000
0.940998 0.955453 1.000000
0.999403 0.973661 0.994380
1.000000 0.981351 0.980098
0.856811 0.953570 1.000000
0.856894 0.953564 1.000000
0.857161 0.953544 1.000000
0.858191 0.953470 1.000000
0.862155 0.953180 1.000000
0.877558 0.952200 1.000000
0.941527 0.956999 1.000000
0.999130 0.974400 0.994271
1.000000 0.981545 0.980171
0.856359 0.958778 1.000000
0.856441 0.958772 1.000000
0.856705 0.958753 1.000000
0.857727 0.958679 1.000000
0.861655 0.958392 1.000000
0.878313 0.957728 1.000000
0.943747 0.962556 1.000000
0.998148 0.977003 0.993882
1.000000 0.982292 0.980462
0.861289 0.976628 1.000000
0.861394 0.976624 1.000000
0.861731 0.976611 1.000000
0.863051 0.976563 1.000000
0.868302 0.976398 1.000000
0.889614 0.976044 1.000000
0.953008 0.977731 1.000000
0.995471 0.983766 0.992885
1.000000 0.985092 0.981701
0.911517 1.000000 0.996086
0.911598 1.000000 0.996083
0.911858 1.000000 0.996071
0.912862 1.000000 0.996027
0.916708 1.000000 0.995851
0.930696 1.000000 0.995143
0.967532 0.996067 0.992710
0.992545 0.992545 0.992545
1.000000 0.993475 0.987099
0.964898 1.000000 0.977697
0.964904 1.000000 0.977698
0.964923 1.000000 0.977703
0.964996 1.000000 0.977721
0.965281 1.000000 0.977790
0.966363 1.000000 0.978056
0.970922 1.000000 0.979463
0.987587 1.000000 0.987545
1.000000 1.000000 0.995865
0.957101 0.987472 1.000000
0.957108 0.987472 1.000000
0.957131 0.987470 1.000000
0.957221 0.987466 1.000000
0.957567 0.987449 1.000000
0.958898 0.987384 1.000000
0.963963 0.987159 1.000000
0.984570 0.989105 1.000000
1.000000 0.994972 1.000000
0.957101 0.987474 1.000000
0.957108 0.987474 1.000000
0.957131 0.987473 1.000000
0.957221 0.987469 1.000000
0.957567 0.987452 1.000000
0.958898 0.987386 1.000000
0.963963 0.987162 1.000000
0.984571 0.989108 1.000000
1.000000 0.994973 1.000000
0.957101 0.987483 1.000000
0.957108 0.987482 1.000000
0.957131 0.987481 1.000000
0.957221 0.987477 1.000000
0.957567 0.987460 1.000000
0.958898 0.987395 1.000000
0.963964 0.987170 1.000000
0.984574 0.989117 1.000000
1.000000 0.994977 1.000000
0.957101 0.987514 1.000000
0.957108 0.987514 1.000000
0.957131 0.987513 1.000000
0.957220 0.987508 1.000000
0.957566 0.987491 1.000000
0.958897 0.987426 1.000000
0.963966 0.987202 1.000000
0.984587 0.989151 1.000000
1.000000 0.994993 1.000000
0.957098 0.987636 1.000000
0.957105 0.987636 1.000000
0.957128 0.987634 1.000000
0.957218 0.987630 1.000000
0.957564 0.987613 1.000000
0.958895 0.987548 1.000000
0.963976 0.987327 1.000000
0.984639 0.989281 1.000000
1.000000 0.995052 1.000000
0.957097 0.988104 1.000000
0.957104 0.988104 1.000000
0.957127 0.988102 1.000000
0.957216 0.988098 1.000000
0.957562 0.988081 1.000000
0.958890 0.988014 1.000000
0.964031 0.987810 1.000000
0.984841 0.989777 1.000000
1.000000 0.995276 1.000000
0.957192 0.989862 1.000000
0.957199 0.989862 1.000000
0.957221 0.989861 1.000000
0.957310 0.989856 1.000000
0.957652 0.989838 1.000000
0.958969 0.989768 1.000000
0.964494 0.989650 1.000000
0.985669 0.991547 1.000000
1.000000 0.996059 1.000000
0.959523 0.995787 1.000000
0.959532 0.995787 1.000000
0.959560 0.995786 1.000000
0.959671 0.995782 1.000000
0.960102 0.995767 1.000000
0.961817 0.995717 1.000000
0.968726 0.995622 1.000000
0.988896 0.996239 1.000000
1.000000 0.998028 1.000000
0.975553 1.000000 1.000000
0.975560 1.000000 1.000000
0.975581 1.000000 1.000000
0.975666 1.000000 1.000000
0.975992 1.000000 1.000000
0.977237 1.000000 1.000000
0.981741 1.000000 1.000000
0.993303 1.000000 1.000000
1.000000 1.000000 1.000000
