ocio/AgXc_all-dccs_OCIO-v2/OpenDRT-OCIO-Config-main-2/transforms/OpenDRT_Default_v1.0.0_tlog-egamut_to_Rec1886_inverse.cube
LUT_3D_SIZE 8
0.000000 0.000000 0.000000
0.268450 0.000000 0.053893
0.346851 0.000000 0.129564
0.399955 0.000000 0.187771
0.445703 0.000000 0.244776
0.488127 0.000000 0.297013
0.527371 0.000000 0.343680
0.556753 0.000000 0.377708
0.000000 0.301802 0.000000
0.269948 0.287638 0.000000
0.349070 0.265351 0.000000
0.400680 0.268193 0.000000
0.448092 0.280930 0.000000
0.499229 0.278257 0.000000
0.555624 0.000000 0.300733
0.579828 0.000000 0.387109
0.000000 0.384705 0.000000
0.297036 0.374708 0.000000
0.350926 0.367465 0.000000
0.403349 0.357655 0.000000
0.449874 0.358325 0.000000
0.498801 0.364711 0.000000
0.558743 0.348155 0.000000
0.608747 0.000000 0.384240
0.000000 0.443274 0.000000
0.336473 0.429541 0.000000
0.368755 0.426829 0.000000
0.407950 0.421800 0.000000
0.452289 0.418929 0.000000
0.500528 0.423781 0.000000
0.558749 0.427350 0.000000
0.640540 0.000000 0.328223
0.327958 0.484208 0.296708
0.378541 0.479692 0.000000
0.399188 0.477572 0.000000
0.427640 0.474189 0.000000
0.461513 0.471193 0.000000
0.504315 0.472943 0.000000
0.559876 0.481638 0.000000
0.656250 0.436409 0.000000
0.000000 0.561233 0.000000
0.419505 0.532589 0.000000
0.436093 0.529904 0.000000
0.458660 0.527006 0.000000
0.484324 0.522244 0.203074
0.517816 0.522273 0.000000
0.565300 0.528230 0.000000
0.656250 0.538246 0.000000
0.000000 0.616671 0.304171
0.451773 0.595407 0.000000
0.472104 0.591352 0.000000
0.494130 0.588567 0.000000
0.518423 0.583934 0.000000
0.545506 0.579839 0.000000
0.581979 0.580443 0.000000
0.634629 0.585954 0.000000
0.000000 0.651424 0.225780
0.406228 0.652633 0.000000
0.465013 0.651892 0.000000
0.507483 0.651209 0.000000
0.542585 0.644136 0.000000
0.565291 0.628707 0.000000
0.584724 0.613737 0.000000
0.608800 0.606291 0.000000
0.000000 0.000000 0.291294
0.257287 0.000000 0.270442
0.342559 0.000000 0.261111
0.398660 0.000000 0.269788
0.445304 0.000000 0.296667
0.488356 0.000000 0.332015
0.528108 0.000000 0.370484
0.557852 0.000000 0.400790
0.000000 0.291585 0.269623
0.268040 0.268040 0.268040
0.335850 0.283366 0.281263
0.390247 0.294908 0.292037
0.439422 0.306583 0.311696
0.489059 0.307588 0.338689
0.546222 0.228452 0.375771
0.580390 0.000000 0.406424
0.000000 0.377200 0.263889
0.305803 0.351328 0.286947
0.346396 0.350252 0.293800
0.393666 0.357040 0.307656
0.441539 0.364316 0.325089
0.490442 0.371758 0.349409
0.545281 0.367182 0.383602
0.609191 0.000000 0.414633
0.000000 0.432750 0.289856
0.345138 0.410298 0.315346
0.370060 0.408307 0.319062
0.402853 0.408034 0.325898
0.445399 0.413069 0.338746
0.493342 0.420866 0.359115
0.548133 0.426081 0.389054
0.641790 0.000000 0.401257
0.000000 0.482988 0.334902
0.382280 0.462980 0.348836
0.399889 0.461992 0.349521
0.424889 0.460773 0.350209
0.456566 0.461077 0.355323
0.498999 0.466398 0.367938
0.552668 0.475707 0.391005
0.678162 0.279162 0.000000
0.000000 0.536021 0.387695
0.417564 0.516477 0.383711
0.433357 0.516257 0.381809
0.453846 0.515758 0.377448
0.480223 0.515017 0.372542
0.513303 0.516021 0.373219
0.561116 0.523494 0.384395
0.682860 0.528618 0.000000
0.000000 0.601241 0.429138
0.449200 0.578000 0.416289
0.466222 0.578289 0.411797
0.486692 0.578966 0.401250
0.512976 0.578572 0.382959
0.542749 0.577483 0.358905
0.581381 0.580014 0.336763
0.657022 0.598149 0.000000
0.000000 0.652186 0.379862
0.290966 0.664970 0.000000
0.435126 0.664792 0.000000
0.497755 0.664738 0.000000
0.545850 0.659828 0.000000
0.573526 0.640693 0.000000
0.593116 0.624170 0.000000
0.619630 0.614074 0.000000
0.000000 0.000000 0.371092
0.256180 0.046436 0.358936
0.336771 0.000000 0.349873
0.393673 0.000000 0.351424
0.444142 0.000000 0.360846
0.489057 0.000000 0.380112
0.529342 0.000000 0.405777
0.558721 0.000000 0.428433
0.171815 0.277696 0.359315
0.282107 0.280736 0.347052
0.336077 0.291608 0.344405
0.387102 0.307480 0.353817
0.438229 0.316040 0.363135
0.489176 0.314345 0.378897
0.546410 0.239729 0.407387
0.581010 0.000000 0.436228
0.000000 0.371376 0.351749
0.314571 0.349449 0.348073
0.348644 0.348644 0.348644
0.392823 0.358231 0.357883
0.440464 0.367410 0.368806
0.490010 0.373917 0.384301
0.545291 0.367061 0.410261
0.609248 0.000000 0.442567
0.000000 0.429862 0.353785
0.350387 0.406660 0.360816
0.372870 0.405273 0.361882
0.404457 0.406232 0.363796
0.446110 0.413098 0.373816
0.493948 0.421318 0.389282
0.548849 0.425706 0.414302
0.642759 0.000000 0.441470
0.000000 0.480860 0.376440
0.385188 0.461193 0.380585
0.402268 0.460399 0.381044
0.426570 0.459863 0.380271
0.457975 0.460816 0.382337
0.500435 0.466707 0.393049
0.554247 0.475715 0.414477
0.682315 0.000000 0.352572
0.000000 0.533966 0.414635
0.418471 0.516452 0.406405
0.434245 0.516175 0.405237
0.454999 0.516232 0.402176
0.481673 0.515838 0.397462
0.514912 0.516967 0.397233
0.563064 0.524351 0.407705
0.697294 0.515388 0.000000
0.000000 0.599357 0.455659
0.448324 0.577988 0.436737
0.465819 0.578974 0.433513
0.486515 0.580307 0.425127
0.513653 0.580622 0.409576
0.544328 0.579700 0.389551
0.583468 0.582011 0.372917
0.678012 0.605106 0.000000
0.000000 0.654398 0.437758
0.000000 0.671134 0.340585
0.364688 0.677099 0.000000
0.479494 0.676588 0.000000
0.545805 0.673954 0.000000
0.581245 0.656098 0.000000
0.603629 0.636964 0.000000
0.630512 0.624746 0.000000
0.162735 0.000000 0.423656
0.278792 0.000000 0.415359
0.338738 0.000000 0.410214
0.392739 0.000000 0.405965
0.441784 0.000000 0.412304
0.488070 0.000000 0.425766
0.528821 0.000000 0.442598
0.557355 0.000000 0.457529
0.000000 0.281598 0.419176
0.307559 0.299808 0.402419
0.346859 0.307038 0.399810
0.389869 0.318308 0.399405
0.436464 0.326288 0.409039
0.488138 0.320730 0.423431
0.546137 0.237987 0.447029
0.579202 0.000000 0.467889
0.000000 0.360000 0.416813
0.330322 0.355451 0.403034
0.358789 0.356754 0.402041
0.395472 0.360451 0.402430
0.439967 0.369104 0.411323
0.489684 0.374471 0.424990
0.545467 0.363244 0.446718
0.607366 0.000000 0.476941
0.000000 0.426064 0.411467
0.357214 0.408110 0.406019
0.377173 0.407180 0.406824
0.407614 0.407614 0.407614
0.448557 0.413653 0.414761
0.495357 0.421162 0.428120
0.550130 0.422715 0.449100
0.641473 0.000000 0.486275
0.000000 0.477787 0.422704
0.388023 0.460604 0.419188
0.404290 0.460399 0.419889
0.429167 0.460997 0.419616
0.461227 0.461862 0.419458
0.503917 0.467582 0.429816
0.557503 0.474962 0.449492
0.683417 0.000000 0.468352
0.000000 0.530419 0.450121
0.418908 0.516517 0.440393
0.434671 0.516714 0.439744
0.456238 0.517841 0.438075
0.484349 0.518403 0.433470
0.518358 0.519313 0.432029
0.567545 0.526130 0.443635
0.717464 0.468582 0.000000
0.388823 0.589291 0.482573
0.446257 0.578916 0.468480
0.463989 0.580321 0.465857
0.485302 0.582813 0.461063
0.514451 0.585055 0.449226
0.547333 0.584633 0.431871
0.587804 0.586220 0.419930
0.708723 0.613751 0.000000
0.000000 0.656710 0.497721
0.000000 0.674764 0.468106
0.000000 0.687491 0.416149
0.369843 0.698205 0.000000
0.531123 0.696982 0.000000
0.593296 0.682889 0.000000
0.619848 0.656767 0.000000
0.650378 0.642586 0.000000
0.275257 0.000000 0.466899
0.318303 0.000000 0.461709
0.355306 0.000000 0.460265
0.399787 0.000000 0.456981
0.444275 0.000000 0.457637
0.487121 0.000000 0.466084
0.525837 0.000000 0.476650
0.552626 0.000000 0.484158
0.000000 0.285132 0.467825
0.336534 0.311735 0.451988
0.364049 0.316394 0.451231
0.400543 0.324874 0.449589
0.440871 0.331528 0.451820
0.488007 0.320879 0.463955
0.545320 0.187488 0.485938
0.575277 0.000000 0.497055
0.000000 0.355911 0.467507
0.351987 0.362012 0.453073
0.374686 0.363950 0.452572
0.406303 0.367089 0.451840
0.444142 0.371442 0.453756
0.490190 0.372601 0.464906
0.546024 0.349539 0.485296
0.599507 0.000000 0.509021
0.000000 0.421246 0.465912
0.371578 0.412129 0.456143
0.390096 0.412265 0.456584
0.417015 0.412849 0.457555
0.451988 0.414732 0.459002
0.497108 0.418771 0.468442
0.552161 0.414055 0.487810
0.632977 0.000000 0.524384
0.000000 0.476348 0.469019
0.394326 0.463434 0.462121
0.409584 0.463294 0.462881
0.432257 0.463943 0.464449
0.465104 0.465104 0.465104
0.508902 0.468168 0.472356
0.562155 0.471217 0.490128
0.679091 0.000000 0.535848
0.000000 0.528659 0.487881
0.419840 0.517837 0.478508
0.434880 0.518516 0.478767
0.456008 0.520572 0.479183
0.486779 0.523386 0.477486
0.523928 0.523823 0.474400
0.575037 0.528215 0.486960
0.734363 0.124988 0.467697
0.000000 0.591804 0.523708
0.442663 0.580200 0.505381
0.459959 0.582215 0.504293
0.481584 0.586073 0.502698
0.513045 0.591545 0.496667
0.551649 0.593426 0.481501
0.595163 0.593451 0.471304
0.747949 0.616620 0.000000
0.000000 0.659223 0.548558
0.000000 0.680379 0.544292
0.000000 0.694647 0.534371
0.000000 0.710294 0.507362
0.343016 0.730436 0.000000
0.595091 0.725583 0.000000
0.644085 0.691607 0.000000
0.678949 0.670713 0.000000
0.336624 0.000000 0.503761
0.359828 0.000000 0.500914
0.385483 0.000000 0.501166
0.417381 0.000000 0.501009
0.452926 0.000000 0.500595
0.488989 0.000000 0.502414
0.521510 0.000000 0.506313
0.546161 0.000000 0.510600
0.000000 0.214256 0.518584
0.368107 0.296763 0.501326
0.389270 0.300753 0.500857
0.418780 0.305469 0.501181
0.454024 0.308851 0.501798
0.495113 0.287318 0.507956
0.540927 0.000000 0.520453
0.563671 0.000000 0.520687
0.000000 0.343035 0.517343
0.379212 0.360088 0.501879
0.397724 0.361210 0.502121
0.423776 0.362849 0.502502
0.457077 0.364772 0.503504
0.496949 0.360164 0.508808
0.548608 0.300194 0.525599
0.586522 0.000000 0.534293
0.000000 0.415577 0.518324
0.392624 0.412804 0.506534
0.409655 0.412982 0.506846
0.433180 0.413094 0.508001
0.464206 0.413319 0.509454
0.503022 0.412262 0.513555
0.554867 0.391169 0.529081
0.615125 0.000000 0.552658
0.000000 0.475701 0.520483
0.408046 0.465591 0.512615
0.423209 0.465697 0.513958
0.445233 0.465849 0.516163
0.475045 0.465904 0.518752
0.513314 0.466179 0.521205
0.566501 0.459140 0.534686
0.659277 0.000000 0.575750
0.000000 0.530415 0.531392
0.424370 0.521407 0.522938
0.438659 0.522273 0.524073
0.458965 0.524090 0.526087
0.488395 0.526665 0.528483
0.528785 0.528785 0.528785
0.584664 0.526611 0.538964
0.726017 0.000000 0.593285
0.000000 0.593101 0.561111
0.438248 0.583290 0.545893
0.454927 0.585879 0.546746
0.476365 0.589982 0.547713
0.507206 0.596931 0.548045
0.552128 0.605798 0.542559
0.606185 0.604901 0.529677
0.796244 0.561444 0.000000
0.000000 0.660119 0.591325
0.000000 0.685635 0.600134
0.000000 0.700476 0.603798
0.000000 0.717057 0.604447
0.421771 0.734271 0.596557
0.114896 0.777074 0.000000
0.671832 0.753543 0.000000
0.722246 0.711846 0.000000
0.377768 0.000000 0.531210
0.393614 0.000000 0.530998
0.412565 0.000000 0.531206
0.436680 0.000000 0.531755
0.463570 0.000000 0.531764
0.491062 0.000000 0.531209
0.516214 0.000000 0.530810
0.540835 0.000000 0.530022
0.378489 0.000000 0.550924
0.402464 0.000000 0.549037
0.420774 0.000000 0.549167
0.443894 0.000000 0.549694
0.472112 0.000000 0.549369
0.502397 0.000000 0.547637
0.530921 0.000000 0.546072
0.554227 0.000000 0.543422
0.274448 0.000000 0.572597
0.410413 0.302355 0.554513
0.427382 0.300921 0.554691
0.449623 0.293263 0.556204
0.479001 0.270292 0.558927
0.514704 0.167126 0.563629
0.546822 0.000000 0.562074
0.571641 0.000000 0.556410
0.000000 0.370881 0.576595
0.420519 0.390745 0.559134
0.435927 0.388881 0.560202
0.456957 0.384526 0.562014
0.484945 0.375980 0.564900
0.520237 0.354945 0.569616
0.566184 0.195192 0.580493
0.593378 0.000000 0.574464
0.000000 0.466251 0.580349
0.430366 0.457474 0.568198
0.445856 0.455906 0.569414
0.465895 0.453385 0.571903
0.493665 0.448691 0.575634
0.529034 0.439701 0.580242
0.576106 0.407055 0.589395
0.626422 0.000000 0.598856
0.000000 0.533442 0.589493
0.436398 0.521560 0.579839
0.452204 0.521427 0.581970
0.472839 0.521165 0.585567
0.501967 0.519680 0.590772
0.540542 0.515985 0.596648
0.591612 0.506550 0.602701
0.683819 0.000000 0.636649
0.000000 0.600826 0.611685
0.431173 0.590819 0.599076
0.451254 0.592197 0.600211
0.473345 0.595559 0.603420
0.503747 0.601125 0.608247
0.546830 0.608840 0.614588
0.614521 0.614521 0.614521
0.799317 0.000000 0.676420
0.000000 0.656923 0.627180
0.000000 0.678066 0.642463
0.000000 0.693941 0.652739
0.000000 0.713277 0.663486
0.390185 0.731785 0.671435
0.000000 0.784886 0.689521
0.000000 0.852647 0.443862
0.798594 0.783921 0.000000
0.404715 0.000000 0.549901
0.418713 0.000000 0.549831
0.432955 0.000000 0.550448
0.451091 0.000000 0.550847
0.468404 0.000000 0.550556
0.491694 0.000000 0.549248
0.513667 0.000000 0.546828
0.530789 0.000000 0.545751
0.411589 0.000000 0.565225
0.423587 0.000000 0.564677
0.437831 0.000000 0.565080
0.456445 0.000000 0.565093
0.479304 0.000000 0.564152
0.499562 0.000000 0.562372
0.523660 0.000000 0.561388
0.544829 0.000000 0.559889
0.419662 0.000000 0.585124
0.436423 0.000000 0.584142
0.451041 0.000000 0.584026
0.468080 0.000000 0.583468
0.488143 0.000000 0.581938
0.513287 0.000000 0.578622
0.534640 0.000000 0.576998
0.559300 0.000000 0.573050
0.421169 0.000000 0.609986
0.446303 0.000000 0.609121
0.462929 0.000000 0.608994
0.481365 0.000000 0.608309
0.502370 0.000000 0.606156
0.527574 0.000000 0.602005
0.550835 0.000000 0.595093
0.576352 0.000000 0.590835
0.355722 0.000000 0.645456
0.451754 0.000000 0.644344
0.474423 0.000000 0.644159
0.496111 0.000000 0.643074
0.521293 0.000000 0.639977
0.546866 0.000000 0.633778
0.574103 0.000000 0.624569
0.597647 0.000000 0.612255
0.000000 0.481737 0.666090
0.367829 0.000000 0.689849
0.450176 0.000000 0.691688
0.495722 0.000000 0.692603
0.536585 0.000000 0.691219
0.574227 0.000000 0.685201
0.606118 0.000000 0.669705
0.633568 0.000000 0.648724
0.000000 0.592431 0.671787
0.000000 0.583765 0.704250
0.000000 0.570367 0.720731
0.328124 0.552369 0.734374
0.000000 0.355753 0.761628
0.571124 0.000000 0.768249
0.652006 0.000000 0.756628
0.695063 0.000000 0.710815
0.000000 0.645189 0.660259
0.000000 0.659597 0.676055
0.000000 0.671646 0.688381
0.000000 0.686803 0.704322
0.000000 0.709435 0.729196
0.000000 0.746653 0.767660
0.000000 0.814489 0.839413
1.000000 0.984375 1.000000
