ocio/AgXc_all-dccs_OCIO-v2/OpenDRT-OCIO-Config-main-2/transforms/OpenDRT_Default_v1.0.0_tlog-egamut_to_Rec1886.cube
TITLE "Generated by Foundry::LUT"
LUT_3D_SIZE 5
0.000889 0.000889 0.000889
0.120872 0.004715 0.000000
0.706675 0.069387 0.000000
1.000000 0.749046 0.576863
1.000000 0.975784 0.956927
0.000000 0.088337 0.000000
0.118776 0.104461 0.000000
0.714346 0.119347 0.000000
1.000000 0.751108 0.576415
1.000000 0.975801 0.956928
0.000000 0.571811 0.000000
0.000000 0.575033 0.000000
0.679633 0.653512 0.000000
1.000000 0.780696 0.571628
1.000000 0.976045 0.956936
0.633542 1.000000 0.638246
0.636467 1.000000 0.638630
0.675573 1.000000 0.643565
0.984194 0.999784 0.795203
1.000000 0.979733 0.957265
0.965006 1.000000 0.963929
0.965028 1.000000 0.963937
0.965339 1.000000 0.964047
0.969698 1.000000 0.965562
1.000000 1.000000 0.985232
0.000000 0.000000 0.096428
0.132443 0.000000 0.119317
0.717175 0.063635 0.000000
1.000000 0.749189 0.580451
1.000000 0.975787 0.956954
0.000000 0.100376 0.114450
0.121066 0.121066 0.121066
0.723059 0.106355 0.000000
1.000000 0.750999 0.580143
1.000000 0.975803 0.956954
0.000000 0.586316 0.000000
0.000000 0.588324 0.000000
0.682052 0.659145 0.000000
1.000000 0.780551 0.575457
1.000000 0.976047 0.956962
0.633023 1.000000 0.640351
0.635960 1.000000 0.640734
0.675226 1.000000 0.645673
0.983888 0.999189 0.797904
1.000000 0.979734 0.957291
0.965006 1.000000 0.963944
0.965028 1.000000 0.963952
0.965339 1.000000 0.964062
0.969698 1.000000 0.965578
1.000000 1.000000 0.985251
0.000000 0.060416 0.652274
0.000000 0.051517 0.659410
0.732533 0.055870 0.677591
1.000000 0.748607 0.631701
1.000000 0.975858 0.957311
0.000000 0.128662 0.662660
0.000000 0.106944 0.668513
0.735779 0.100320 0.682599
1.000000 0.750619 0.631359
1.000000 0.975875 0.957311
0.000000 0.636270 0.648172
0.000000 0.636500 0.645877
0.652815 0.652815 0.652815
1.000000 0.779271 0.627778
1.000000 0.976080 0.957334
0.624669 1.000000 0.670018
0.627814 1.000000 0.670390
0.669594 1.000000 0.675280
0.979467 0.990909 0.833587
1.000000 0.979755 0.957666
0.965004 1.000000 0.964163
0.965026 1.000000 0.964170
0.965337 1.000000 0.964280
0.969709 1.000000 0.965797
1.000000 1.000000 0.985524
0.520098 0.837221 1.000000
0.525719 0.836857 1.000000
0.599677 0.831678 1.000000
0.987441 0.894495 0.970656
1.000000 0.976459 0.962836
0.519363 0.838567 1.000000
0.524970 0.838201 1.000000
0.599225 0.833095 1.000000
0.987171 0.895331 0.970539
1.000000 0.976475 0.962837
0.510428 0.857335 1.000000
0.516098 0.856999 1.000000
0.596695 0.853265 1.000000
0.983508 0.906359 0.968970
1.000000 0.976707 0.962850
0.690577 1.000000 0.973346
0.695145 1.000000 0.973203
0.755346 0.994175 0.970979
0.963749 0.963749 0.963749
1.000000 0.980172 0.963219
0.964870 1.000000 0.967366
0.964893 1.000000 0.967374
0.965219 1.000000 0.967483
0.969791 1.000000 0.969002
1.000000 1.000000 0.989199
0.957101 0.987472 1.000000
0.957131 0.987470 1.000000
0.957567 0.987449 1.000000
0.963963 0.987159 1.000000
1.000000 0.994972 1.000000
0.957101 0.987483 1.000000
0.957131 0.987481 1.000000
0.957567 0.987460 1.000000
0.963964 0.987170 1.000000
1.000000 0.994977 1.000000
0.957098 0.987636 1.000000
0.957128 0.987634 1.000000
0.957564 0.987613 1.000000
0.963976 0.987327 1.000000
1.000000 0.995052 1.000000
0.957192 0.989862 1.000000
0.957221 0.989861 1.000000
0.957652 0.989838 1.000000
0.964494 0.989650 1.000000
1.000000 0.996059 1.000000
0.975553 1.000000 1.000000
0.975581 1.000000 1.000000
0.975992 1.000000 1.000000
0.981741 1.000000 1.000000
1.000000 1.000000 1.000000
